landnesses/agent_robot_land/neuro/right_arm_ik_dataset.csv
arm_flag,x,y,z,qx,qy,qz,qw,right_fb_joint,right_side_joint,right_bigarm_joint,right_elbow_joint,right_smallarm_joint,right_wrist_joint
1,0.5889754368645859,0.19220027742786727,1.9826232141412639,0.7521528148939395,0.35560700841466253,-0.006166378432528055,0.5547718219146738,2.574852047050218,0.8850791903861593,0.42672581852689373,1.1405139062097809,0.2016908293364703,-0.5311559731968603
1,0.4619162132846826,0.4802155236717127,1.7145163015783917,0.3642393512911855,-0.03379550761003931,0.24739816731685055,0.8972077270312717,2.2489749934096324,1.828693600643761,1.512764050116852,1.6205121400691112,-0.13405043693779817,0.7221268686517084
1,0.6731391498463568,0.09778457830896903,1.8527538115806612,0.49995170571337705,-0.2904397765720959,-0.5572885668197587,0.5959215396602284,1.8499678902352554,1.6967567071127279,-0.035066585456603835,1.1603603462189098,1.2770197467284206,0.22831045972066544
1,0.6165215231073731,0.11689817587671263,1.0825914481437338,-0.6929556185301006,-0.4170544472119264,0.48581122536990745,0.33145972924762857,-1.1959877006755921,1.7120382568701324,0.6969535809986387,1.41385218697654,1.297820708418691,0.16144961772273037
1,0.6608263376664903,0.09117405507505194,1.0406383848266751,-0.6506271379277909,-0.5112277271659659,0.03312270603900359,0.5605652724824005,-1.2301521831730802,0.9747508027575396,0.3263239097595676,1.0290959521992864,1.272229993995281,-0.5325959936096214
1,0.6717690009233053,-0.06497294584391777,1.029833769259802,-0.697317987580735,-0.2344279293976681,-0.514996978286352,0.43996509233188463,-0.6304445470080016,0.5579561634132317,0.3103656122105338,0.2140646011917716,0.5310760359574438,-0.5587351406983736
1,0.8100952672690818,-0.1680282579163992,1.4173848398694682,-0.8383772147101435,-0.542919359028796,0.03997023481534494,0.02765132502125262,-1.5355694320822346,0.8490385816770682,0.5722679503918889,0.08807139951953241,1.0863167060245797,-0.3178249415879164
1,0.3271717892375497,0.6555772943171616,1.9392472233244593,0.4029404979036372,0.26519285620896943,0.2710873312589998,0.8329606011065422,2.1770641898984957,0.5719372075437549,1.122915864869218,0.770679624657377,-0.36212868333875825,0.14450867935278766
1,0.41353861030798456,0.7212227775507741,1.7097024079507983,0.21615703947673337,0.08425142792489301,-0.02165322149172512,0.9724756907893903,1.937715134277372,1.0632448433871928,1.4195757656313581,1.4415051352642136,-0.09951540960426497,-0.43664204197628115
1,0.7143045055057788,0.4848731014851333,1.2822840456652704,-0.32342724629161895,-0.0975278116765315,-0.031942315811797024,0.9406714786610616,1.6187949774591865,1.7662978526385218,1.9611771895799472,0.89389856727677,0.417370985791512,0.7743044448762395
1,0.6955519329016542,0.21902995205398,1.0081269951370535,-0.6291026714069495,-0.0776726207927929,-0.22589516598567247,0.7397081632590827,-0.7744399291379596,1.1383507095847891,0.4079794136459327,0.8386777871241159,0.2509552630957499,0.0694920890506242
1,0.8568402503935744,0.3110651095408654,1.2299649595912552,-0.33019868742674285,0.09684931018832006,-0.5328525957807521,0.7730828863113054,0.33649826947444184,1.6481112625715808,1.6348849924704485,0.7433942243521868,-0.9257038193673406,0.07545549873016022
1,0.8893839069745076,0.25405684014151236,1.2642553166796124,-0.5428548755521968,-0.18138839420136316,-0.3943202724950741,0.7189703451726446,0.4326413118311685,1.5935321039277213,1.9764876469943047,0.41366467554342323,-0.3598829738610714,0.34042861045059936
1,0.9139629167945561,0.1452012085352699,1.405463135649938,-0.4730706719322526,-0.31222717126618377,-0.6816988972316569,0.4626066864992641,-0.7870653241143126,1.7137481739430747,1.34778014852374,0.590981499393897,-1.0204886414390328,-0.4023938874725416
1,0.31678644783131504,0.32655137162571585,2.0362305380775236,0.3807346990369401,0.5700457332617734,0.5227328057420627,0.5067932169438845,2.3086246441875895,0.1939589270032321,-0.030258634348407948,1.3413625616681444,-0.4199593218975648,-0.7054117196796137
1,0.45151784773060766,0.639402951411407,1.3505607792381893,-0.1378210128117791,0.13520461491059865,0.17418160985819933,0.965601287966011,1.7198832384471168,1.585738340385677,2.0357776480531427,1.5362024942941603,-0.19604133994669737,0.45832922694959666
1,0.8490446740042592,0.2506172927799006,1.1666160132294043,-0.5130899513227619,-0.09391281252556594,-0.47211562290232,0.7106517600813352,-0.4562576480218883,1.4713748493430772,0.9689763502685839,0.6394766773822086,-0.47482721655712024,-0.022925944056145564
1,0.5111009644346328,0.2602993139450538,0.8275127973133819,-0.5255421579124248,0.23414391502217832,-0.4843524170342355,0.6590787535855894,-0.021749380710121224,0.3331710972080925,0.028995545679781715,0.1478776025000538,0.448751152090364,-0.1557027784711087
1,0.4512374959706658,0.28631765044398566,2.0716951832773995,0.7371799371063308,-0.028814066466688583,-0.014927122457790534,0.6749167881425763,2.605627832930555,0.6334313984921398,0.5008437108012863,0.7585592550931854,0.8504433748666482,0.20750970593906204
1,0.31443924062929474,-0.20053135196743627,1.057819631603288,-0.8630209446083864,0.1549265745033472,0.3329291382738573,0.3469161203636049,-0.9394415864024189,0.6586891609316187,1.1064292716895647,0.7464938249376443,0.8408782429951573,0.6027728371892771
1,0.7281193237412175,0.7190636778941761,1.3338946554761133,0.19050577863600812,0.556677391963065,-0.2757457492779112,0.760119800648985,1.108379369637458,0.7493573047768897,0.11704060917155276,0.12294275919527861,-0.11164092420850014,0.2147441299595778
1,0.6519090407611006,0.01799845037229089,1.1370336533340701,-0.8245505186675741,0.09183123807792826,-0.2593461423216027,0.4943915900791732,-1.825390925261056,1.6651673689096187,0.576790742292766,1.111403019883282,-0.738502418210686,0.48101402930462744
1,0.2945087217030342,0.34988386216309286,2.0093101157775046,0.7402762645390272,-0.19879252278992973,-0.23326860352626008,0.5983797654097857,2.454808990326079,0.6996715400432341,1.1390555384004881,1.3451522153974644,1.1035780658116199,-0.6462501259870526
1,0.4138902685169651,0.20456280110331715,2.0927014445372705,0.7056901860399623,-0.2021226895732073,-0.3114408009154826,0.6034504181883558,3.0269860548033636,0.6659065222895056,1.3287340481479444,0.7935756971300525,0.9401802327583351,-0.22161818928437782
1,0.2837744036920393,0.7366185842772839,1.870605321579525,0.34007277843120887,0.29644412464162534,0.3730342324537017,0.8107507926318773,2.189402255478356,0.31677201416714873,2.0362913385945602,0.3127234404044036,-1.262483255542324,0.6971159557808322
1,0.15056974205254925,0.7025277810935939,1.1112770466857134,-0.19433593775155972,0.1004698554305176,0.03091994741128272,0.9752862699228763,0.324372107515839,0.1029843079864686,0.6643679145892232,1.147074977036135,0.9020464112612547,-0.4442096361597413
1,0.9259579652615861,0.15918743898677876,1.5548769481910247,0.6771680760083771,0.704336835755951,0.21208239901985884,0.019341009756221987,2.7859586157972025,1.6709388025479222,0.5685820093629227,0.41318673785041515,-1.2738622716612598,-0.2973819451977619
1,0.06221807661152223,0.6238783327520045,1.4445419842770832,-0.06149562566300896,-0.018368864792349192,0.6310006944728427,0.7731228857079236,1.693117337953313,0.7223045552628686,1.7581864788132564,1.5551302838673948,-0.06894707002937839,0.5725923621977427
1,0.7718176339535977,0.5235034108031567,1.110808290402654,-0.3987141521084164,-0.2102419424034389,-0.31460734176787924,0.8353727138640845,0.4796748853755777,0.9295603259490799,0.6292552542401095,0.25778194881268246,0.8819585671388825,0.01573276296585635
1,0.8853593266778893,0.23990713558441953,1.2891692381060704,-0.5048607425199855,-0.5500834766048067,-0.4449537572174341,0.494509811193497,-1.1349766932316596,1.4560851554232066,0.317964776492927,0.7141797520325971,0.2932760676886128,-0.7391078942646429
1,0.4689693423765859,0.36655119850773554,1.9720590865965786,0.4445937951604584,0.5016524648917472,0.2556502730439122,0.6966520649976066,2.487390713964756,1.0713665705389273,0.7651185572998299,1.3726775708139,-0.8786425586378965,-0.6738200919222126
1,0.1798236900724115,-0.36750399650769444,1.3116716609341348,-0.9013588590114419,0.10324447130183048,0.3531618885101245,0.22840636359602765,-1.476935161432043,0.3835937027385813,1.3292918197729442,0.8961758206821012,0.9525964428594276,-0.12303557101684881
1,0.7000491369763733,0.43002280577885554,1.9137442860894591,0.416750799578695,0.7099108568617389,0.01540592162995526,0.5675455963524726,2.939068674067415,0.931217727515537,1.4988442924463057,0.45084308546092755,-1.126966492395767,-0.6435652238133391
1,0.23942240701350237,0.48731362726818217,1.9634439495598717,0.06570064682131832,0.66182729273856,0.6083755172684419,0.43306730375539293,1.9209372788291381,0.27382848283732053,0.10658563114037176,1.3360642754080876,-1.1718802492690987,-0.5586802526122604
1,0.9064837722172251,0.1833651692337191,1.4724064987406555,-0.3616929393321222,-0.16821249639495667,-0.47867833632908646,0.782144375434028,0.9015153088649452,1.869558610497759,1.8513723685126326,0.0700069516247227,-0.11583789012275014,0.7583045784302114
1,0.0513579615976916,0.32359760185583525,1.0214686436981646,-0.5526587952076051,0.25101994728518046,0.5453235001237646,0.57808262589131,0.5559180372854049,0.478679244542323,1.9813820280581804,1.2495476749866734,-0.07173727836485155,0.5850203473888966
1,0.9132489689721045,0.31596681173345753,1.278323137158272,-0.15747231251464897,0.12404336486421372,-0.6209372549251829,0.7577945894966737,0.29112337257726995,1.4461363712671775,1.4519618076117267,0.3100817208695743,-1.1058977881016656,0.033236652537927625
1,0.832067223266949,0.48499482512430997,1.767792962302204,0.5027767862631373,0.5074792783548484,-0.23799745630591598,0.6580558456751744,2.459446392402766,0.9475147057739925,0.7117633922745032,0.008451674563300343,0.04721484335827264,-0.028592909574437053
1,0.943864060370571,0.2704752250695371,1.454840249153841,-0.6868045592675164,-0.5613402373232635,-0.2718758707197863,0.3732025539188795,-0.8055481612308601,1.6885020662816623,0.6767339740451114,0.0655413425864928,0.6955763152738621,0.3129592320918473
1,0.24520973521448236,0.06951204888755613,2.1134230746747873,0.527492504345849,0.3814860214112687,0.6530004370366573,0.3870536171600533,3.0792312257447474,0.057560738463604086,0.3053707897634198,0.5185795002447471,-0.45235036465919765,-0.011124622929993278
1,0.6137878580932996,0.3943635751508411,1.122955170234462,-0.5387942811298585,-0.19143804539693482,-0.06272525697298356,0.8179961733003612,0.6410932227963013,1.7583877066974398,1.7642979902246516,1.5731822441290293,0.30014580834881954,-0.10606483185799409
1,0.2839681110097147,0.2744898282756125,1.95090379106216,0.4681595596197214,0.2986531932133378,0.7748186164904206,0.3021407097033057,2.1383475462495474,0.6109726548392405,0.6363344691242284,1.3914383771422605,-0.9877148822545454,0.6906647799346399
1,0.6120598792609117,-0.01871803717269452,1.9084846158761601,0.9058223818702293,0.05714683954389922,0.033350150852938056,0.4184588613844561,3.0910104550277113,1.0142493945942603,0.48430536055231477,0.703195227373712,0.43563401200265117,0.45310564976253054
1,0.8856790373899603,0.4793467954152023,1.5222363208341614,0.4257504798618537,0.9022057143826137,0.0335069751524463,0.06032131007275423,-1.4730048323619673,1.927180281013286,1.942640328625867,0.28856592991227603,-0.25525495458653347,-0.5890735753442071
1,0.7271515289018802,0.4086103356227595,1.9086014021719366,0.4803393386229188,0.7166048384107788,0.04873974994437506,0.5033647406333904,2.6702857449143087,0.9164715355064327,0.6140365706463952,0.48347338936732853,-0.5230148971346037,-0.6192399292716296
1,0.20973916621329222,0.6609101491311723,1.678958552678314,0.3179348760741893,-0.5412936555391389,0.22833818525104388,0.7441641392898662,1.5872249696281673,0.9149399017216165,0.8459510617965394,1.5885341638589514,1.2739875920798438,0.5187322272670678
1,0.4409223055419267,0.6449247297391656,1.6040225521212597,0.12387282217599724,-0.26049027500090477,0.19095835172319056,0.9382618229808086,1.8579857794507129,1.5057451138476214,1.413649619184208,1.4538560133061034,0.4673590382332611,0.588042246656618
1,0.5631663991111673,-0.11943161531807929,0.9623879059386307,-0.7507440355580172,0.03341399361094586,-0.46914901939351444,0.4638599958038369,-0.5823941665973986,0.5118116132469389,1.7878245567037014,0.14604799751463957,-1.1066825412342147,-0.03486214865285808
1,0.9191083296501465,0.23630493379069156,1.362144037485278,-0.5496131193959365,-0.7488756051759412,-0.2502806311480871,0.27289256609946755,-0.3600275869510423,1.4393673557740854,1.7217629351777168,0.3396229938516626,0.33134362614876234,-0.6698425105445707
1,-0.0609026440189009,0.00800341941840653,1.0934419930835275,-0.6634313898049786,0.6776504830331949,0.06496685488053548,0.3105284554324211,-0.7831678423500796,0.1633919548481269,1.3947191973101691,1.0626159348897688,-0.30241946779511863,0.5501753940423788
1,0.6409745754117611,0.49953067128937245,1.709247749765645,0.23003309816079226,-0.40566499367924364,-0.2766494036968125,0.8402296079572332,2.734634190784817,1.8190967390585875,1.8175333439228312,1.4621629908127858,1.1426927734237795,0.21755951287544262
1,0.9167959603130957,0.198146955755698,1.5261388428189426,0.3525451559277728,0.42247786724356845,-0.6283780821058801,0.5498775778754081,1.7214633566568118,1.8416294163442362,0.9116480245264248,0.6470250399472434,-0.4244695885868883,-0.5938835596885618
1,0.2703473689257399,0.23044218611218664,1.0091499549398157,-0.3896354963847038,0.7624230951825051,-0.28632344592773507,0.4300163813175527,-1.0385820463469795,0.7993175578576753,0.5736925465734135,1.6569782903729169,-1.0560907563098156,0.4278171127899473
1,0.37802847942643836,0.8046841979624713,1.7558716455159216,0.2941671198076066,-0.06594540244716625,-0.21511765804437555,0.9288925140820561,1.8025053892810339,0.39424519079270814,1.1185868570039221,0.7121421149797306,0.6756697676743213,-0.6147492392574622
1,0.7235110324404462,-0.27379725137039684,1.499646539069081,-0.7767763622415862,-0.31697722758291036,-0.5177511675781118,0.1675638646250528,-1.7012198867719615,0.7186386899072725,0.15221939712712504,0.11585180664816278,0.1801006977534243,-0.08183573674875189
1,0.42093881188180476,-0.06945996920913777,1.9240448246624353,0.9222144867704695,0.021792724072559954,0.017054493851731547,0.3856872590683275,3.0747362218493466,0.8870709768712987,0.6681560885126793,1.313914946875196,0.456525721727582,-0.1956840966656097
1,0.8878897107840455,0.14802061458616322,1.3801670787127804,-0.6787397304173945,-0.5749790339594059,-0.32618681130761734,0.31986505434167317,-0.5956383572022428,1.7854520861394712,1.6353150152836797,0.9299446926313023,-0.06458990401108444,-0.5641386522788064
1,0.8268757613778,0.5441479718631945,1.4301772684853866,0.13307643726026205,0.4501929810556949,-0.35293052650279233,0.8093559075689539,-0.19547850576051728,1.6355113890754887,0.11751937649491426,0.7593392084134808,-1.2552952587116564,0.07297845196643693
1,0.8484723695268944,-0.054179314720738295,1.2826105687490335,-0.5509681753407192,-0.2807401251660978,-0.6828419475757671,0.3890320379022486,-0.9018281247481446,1.0534348191659082,0.847902330163122,0.15069316168789984,-0.5295328070623377,-0.4180125597762121
1,0.428062142434956,0.027813122103157825,1.1666114943155605,-0.8203406104871328,0.3505696909754036,-0.048424170843625804,0.44921851501592963,-0.45515410082841634,1.716556355047057,1.836601798407483,1.6205145276966357,-0.3606311827058637,0.7309249371729314
1,0.47405091680548034,-0.41156716063588983,1.4829226859590452,-0.8626609463289463,-0.21266716804622454,-0.4578295327422846,0.03131910380307668,-1.6609217329964285,0.27584562617575453,0.222936854419755,0.22522044744176503,0.36888036742661723,-0.31842928180773417
1,0.9451711806148211,0.17890496470449813,1.3864423882934718,0.7117417330104295,0.6792518827775373,-0.16086269817247364,0.0785097291496652,2.781308528659685,1.6959293880890571,0.006058958496980904,0.08761482365860596,-0.029147456918359183,-0.06505247504509892
1,0.3156562270536172,0.05290321882465334,0.8948962691596317,-0.6555107819236267,0.41898506934737284,-0.08297209847941378,0.6227943138145825,-0.6985563931672045,0.4895535613506639,0.7913959919295424,0.5683480635242211,-0.02149056056790699,0.6966492507201705
1,0.42710325252867554,0.6015007173689267,1.8579749551886946,0.4175766885175409,0.43318211122972705,0.03934336293954305,0.7977688058014613,1.6413259736995116,0.6287673418425125,0.29816506868305026,1.4944190853630623,0.047622940663041735,-0.7483497590037608
1,0.4375836142613602,0.0182503025779465,0.9180770934288954,-0.6304524840854416,0.3365535739292991,-0.3735043287983969,0.5914016178154846,-0.9763204529913366,0.6100966651320301,0.42832651405974986,0.911006392686949,-0.22990203058314163,0.12290036719567321
1,0.2748085498928042,0.13651373815737183,2.0717452731057926,0.616617300306714,0.1829881505942458,0.6691591055366619,0.37218884075417014,3.009651339796533,0.3903269268282248,1.3412646829552135,0.5794863563613506,-1.1417042858959445,0.7472313916845892
1,0.5740801307489812,0.2544355825158272,1.0868422070125676,-0.15060193311015022,0.6444740996575551,-0.38150065095750296,0.6453134478166968,-1.5360219878963417,0.963662319110006,-0.156647550235158,1.451843505619064,-1.2720755257209995,0.6579273838912754
1,0.32713971031220235,0.5332633667641589,1.9751842126999022,0.41609861888568644,-0.3483928146413233,0.16257774416263937,0.8240466389535906,2.6897395917096105,0.6712284109641699,1.4972675626458054,0.6172215669261207,0.5148122851935519,0.7700704103412239
1,0.23398357163504058,-0.15422921929860148,1.0366400868919046,-0.4995734044020468,0.5623041883525794,-0.6166685730423311,0.2322935306831268,-1.305100669206819,0.4488879989304215,0.8108443044279753,1.0902872272689845,-1.1682691307856334,0.31287275350897326
1,0.8834047162724266,0.3947325782804803,1.723914870718161,0.40607444145192856,0.27179597497452357,-0.4672478994408844,0.7368241964371385,2.5724824386216456,1.0633169069206545,1.9126612486609618,-0.040134229710054384,-0.36803909120760747,-0.017089240801084205
1,0.4701565042395,0.8046420233712851,1.634811900040944,0.11926133725218775,-0.04312920629162535,-0.023497311112738357,0.9916473573664918,1.93183503397119,0.891689086394884,1.6950895838773328,0.9000159173906229,0.01619232929319714,-0.014674103129586169
1,0.8732878324050558,4.149185966342839e-05,1.5262519916136015,-0.6200384688607339,-0.7126036235344617,-0.32208582582543077,0.06331740409037148,-1.4734596792822958,1.005209841188329,0.9055482081698275,-0.05442088942397601,0.08106838070179401,-0.6510932497661607
1,0.5632439840604139,0.7607613084922804,1.1463579928538086,-0.15987028715970444,0.24750777944545838,-0.25696761765941756,0.9204069936022304,0.8477538991500448,0.4957541280518014,0.3339207760860424,0.25810727925913235,0.4984234282963125,0.0012964691127778094
1,0.9154311030904757,0.12132985091817618,1.4033622850508343,0.2423339423994447,0.37097984625233216,-0.7999116726296694,0.40470919192247684,2.0836881991930634,1.6426580347204869,0.6402159233106574,0.14754733715562743,0.5238474969764992,-0.630264533404003
1,0.8894214547738907,0.09045747601436538,1.6032673370542971,0.4475746299246035,0.3899767958172966,-0.6613976991671128,0.45841916725675796,1.2951365845830185,1.8807289221970465,0.1448689843016059,0.5503162758825358,-0.14676806417387844,-0.7210252434923502
1,0.3866300885090348,0.8367199027237876,1.296009941581575,0.2298991122855805,0.9019327645375075,0.017460800316079935,0.3651832510895786,0.8640263101589676,0.1469832917476368,0.2984343614750532,0.5190529917605738,-1.1835139031762956,0.5857166388172488
1,0.5052147330397707,0.8385045809753362,1.41075186111361,-0.07822334075430346,0.9839667317854817,-0.10826371467214366,0.11819284151768188,1.5993706089427955,0.5604906133277725,-0.010746024454401343,-0.0757748592257581,-1.2232415251904916,-0.7291573704474706
1,0.7518832667853897,0.5690842830147391,1.1462049699527117,-0.30932644981396334,0.0013985007813024618,-0.24735587491171054,0.9182212493662503,0.7055099680742558,0.9312911636707943,0.007644801570466847,0.042002353950874066,1.2666644537110958,0.48833275177744895
1,0.597852722209568,0.726528258630679,1.7044614561027245,0.2625400852011989,0.19470509878456063,-0.320105850336528,0.8892102522745512,1.6826973155475,0.79454551876743,0.8315964731857897,0.8672018160467981,0.3025456941737199,-0.6664509191525473
1,0.23289547085596468,-0.21039708297738963,1.4113980357991927,-0.8506156220308139,0.47472857295399123,-0.2252147852872292,0.019082611619670783,-1.550106973821731,1.076051931098837,1.5838878869633997,1.4824710698594292,-0.46455882128116077,0.6288293931600184
1,0.6361980955682113,0.22195590098531148,1.0681339907615153,-0.6200758290461811,-0.5458182212588442,0.2867450516022275,0.48514504115383955,-1.463497155105678,1.7868427677521261,0.5084893927601861,1.4468821434109091,0.9445806628079327,-0.4455645059790339
1,0.5839821234121472,0.4326678970762126,1.1010355298260244,-0.5923841034366331,-0.2363780752419489,0.037309209531489,0.7692948085257202,-0.9080196404013997,1.8742859904485254,0.3859358325591722,1.5073782158041538,0.12467829773720074,-0.035812307038813995
1,0.6549441265022837,0.0824288762505454,0.9821964596296822,-0.24966532567409294,0.4427171837731141,-0.5747330310097915,0.6413662474860611,-0.8199182187769896,0.7927426866204487,0.587405745915919,0.5239243474799676,-1.22767210912982,0.522814122729246
1,0.9177230793352098,0.2484386339186816,1.6518846336807451,0.5813560403314727,0.377844000410394,-0.37663064011994357,0.614335760514415,2.923111983534028,1.4916584670070354,1.3612914107279463,0.3017964999407545,0.02224559212602384,0.08964314278130647
1,0.9326297408820289,0.20755677709095977,1.4959206780812002,-0.5223233027681142,-0.581727310885217,-0.43408918971426,0.4475916426039274,0.8085610710866791,1.9075533053343512,1.719193424826374,0.5156195254181004,0.9016236672605866,-0.1932311225875828
1,0.22101098824415302,-0.1777302575612482,0.936927448903588,-0.917263589728144,0.013357860454795837,-0.04100007778616285,0.3959394753553113,-0.5661057126432354,0.08616705806368499,1.8836380273814826,0.4365551876536399,-0.42415906170216633,-0.31620002784069307
1,0.3337837332945931,-0.2374116552974111,1.6734007542693807,0.9457018458470318,-0.10627883242151087,0.15748054600988948,0.2637284705318439,-1.7549078750179934,1.1040143238865512,1.8122071134220852,1.5447946700660242,-0.38831051510339554,-0.12575939037815553
1,0.9221849536087328,0.2842992025733782,1.3246475630982224,-0.5566732592318521,-0.35891330845101027,-0.3664917409266549,0.6534370079093227,-1.0735259048429273,1.540320007871001,-0.03856684110150664,0.22509571338441617,0.41729048371867883,0.2862485430945432
1,0.6679008034878477,0.5371137121851061,1.738467907455559,0.33824220690899615,0.20702023723434626,-0.17921253122144032,0.9003431009864917,1.2317495302128132,1.6133890153534602,0.5104998690325391,1.329109121823224,-0.31787732991987383,-0.22176603705945386
1,0.38969241808016,0.517585916093085,2.05561460180447,0.5748125588760575,0.013506698449530254,-0.039087270007567405,0.8172394242684998,2.4516495534030867,0.44822212781700344,0.8680004918136116,0.5908404889558077,0.6361669095679892,-0.0796134996772172
1,0.12111845492783108,0.7777333620586054,1.1983955104260062,-0.11452764208342475,0.49834223732318045,0.2571500498766075,0.8200074911529754,0.6909971527196521,0.06494350159455317,0.6310740798354535,0.5642022810868205,0.06962715382357176,0.5591015657198739
1,-0.1316218743523285,0.5096263143018045,1.5083050072694701,-0.17509523528219414,0.21470312893794172,0.6996586711234583,0.6585757123729122,1.7033671895277671,0.1539421224241323,1.6246976776370328,1.5868703300744287,-0.6887234633224085,0.23038782683624137
1,0.4377903605175145,-0.18180649516963715,0.9605019587495847,-0.7822287023157306,0.05629717976385934,-0.4198989631215101,0.4567644311826015,-0.8914016827303488,0.22229889738658376,0.0005932320282654169,0.34686101554266513,0.677885049574126,-0.12662527783422572
1,0.7867045319715611,0.234492137449633,1.8722764905408293,0.7423632758342077,0.27632102535900666,-0.050639540304056506,0.608259068650067,3.038702507673122,1.1524964614437874,1.5353269885723713,0.20742261176105556,-0.4160998664795932,0.5011308718355048
1,0.5186998943620076,0.7743146539240859,1.520220821025754,-0.09702322912400814,-0.48843958626518835,0.07518518321860443,0.8639215541956503,1.9437821164021878,1.0348737669654864,1.7500455382518405,0.8535804967935835,0.9939588257975918,0.5352684481375627
1,0.5480684027379794,-0.31309665218027083,1.3609182195872593,-0.9159541747367851,-0.3073250429815655,0.19552040516075825,0.16837766747525584,-1.8395687216384695,0.7776079590278615,0.8540027609913229,0.8866544728851792,0.9570114097250872,-0.5283615291433126
1,0.7004946519276252,0.40796013520454016,1.21638140553698,-0.4724592892000639,0.049735872883250834,-0.24465220333429355,0.8452537266411715,0.004007214238485712,1.9541966863721858,1.220444869168668,1.3542868172283855,-0.538186097157482,0.2259382144944253
1,-0.0675839377034486,-0.03079498698976605,1.065317892774165,-0.5887300098188903,0.2859133439560088,0.5729026612325449,0.4933893756853829,-0.7182832103232151,0.06367177197595178,1.1549728837892241,0.96591884362308,1.1519195986137656,0.5247192192064853
1,0.5378170589036725,0.8544464983238929,1.5374048585334992,0.10460831390109199,0.19858978987432654,-0.062442195440152934,0.9724814487942977,1.649565792792121,0.5138412934683823,1.7813148395616814,0.0555023886513647,-0.6254355944557729,0.3374099963362711
1,0.5671891938110702,0.8290399036127243,1.3172964146233423,-0.07177312796271736,0.11598581656438604,-0.15135274553354702,0.979024133960853,1.2127408212218722,0.5645697306006445,0.6946800604129134,0.16675744556373354,0.5317130768419627,0.1941382179612111
1,0.8734607663018321,0.014287240778400837,1.4657017237481815,-0.870073023186331,-0.39600024634514275,-0.250997288401386,0.15217457222919112,-1.2182979715639868,1.6510510038004063,1.9127763969994993,0.6175814018939768,-0.5659211056829305,0.1968777761449806
1,0.8059196122188923,0.42958451934310504,1.1910801774283162,-0.5800286679689691,-0.43711057363135525,-0.046540733517821696,0.685809777472905,0.15368361390752705,1.4510825223941042,0.7542821427527421,0.633758950839614,1.1701552634914316,0.4367312251660531
1,0.49007600707004695,0.7088669229370169,1.632664922903353,0.23644903460174302,0.03713843539768238,-0.025611474278304413,0.9705960246350739,1.0569381304362684,1.1544490745934164,0.5325758475533592,1.4187065989785819,0.27464597297791515,-0.12087463530248554
1,-0.03476772633978892,0.5835571270040644,1.3227712643094254,0.1129286122978323,-0.1612927156472944,0.5464053426339737,0.8140472897471365,0.6843722377833121,0.3637867400945493,1.0667920252791243,1.6535074807200723,1.1849162067626264,0.20361344263656644
1,0.05479132514205332,0.6366695815673354,1.8856293615713255,0.22531982869193368,0.10244573912984932,0.12619572153955175,0.9606302541547864,2.625777180791818,0.04325131905681069,1.7648504066354702,0.9750064349982915,-0.7512579415458718,-0.7317133497473532
1,-0.04692560856556641,-0.10588318385771865,1.4966648870976067,0.6810195040530456,-0.6842082783930681,0.19441016139318773,0.17400044834658926,-1.4988958052569363,0.3759740487731802,1.8322653986996242,1.4781181976397453,-0.5584179650923954,0.5647276546975275
1,0.46446038311858956,-0.14535462967017324,1.6942419699976885,0.8448163985557735,0.05600515016875308,0.4743764181055463,0.24107195986091148,2.817513433219684,1.4945665832394124,0.19895300730540508,1.6426772540062542,-0.9342791954956842,0.058610137205085566
1,0.8239726019966419,0.5803001830621175,1.5081161437765074,-0.13192560923405863,-0.1677497027336663,-0.27232377243988765,0.9382406055085755,-1.1834702522227345,1.9593259761567507,0.22790345288477823,0.01976944576631018,-1.0236613606812424,0.6513087459585463
1,0.4787802797383162,0.5642134873289975,1.0997186090007023,-0.42655067496080173,-0.1250932925925232,-0.13684795276852327,0.885256362678016,1.0056356767648384,1.2085680991173087,1.9123053474698206,1.6122352315102748,-0.01590986450652654,-0.7170376695159885
1,0.6104111089292508,0.6439234624866801,1.8914719534291944,0.3263084457343332,-0.12072837557613718,-0.33804909060491384,0.8744542697673692,2.3245312487599135,0.6619426345024004,1.446158056930952,0.30885438308778246,0.5981793735430001,-0.16846333559093263
1,0.5745537416367601,0.3200808430201739,1.0175688517512844,-0.5184172572142498,0.3714469248383145,-0.3825978857135181,0.6684980084474161,0.3993800375235337,1.46667461548181,1.8069416163218432,1.3370493471630733,-1.1404271984535894,0.017187555189062897
1,0.8921504428035213,0.39428689398323175,1.4649306026674696,0.25250780060845446,0.32976936597650414,-0.367276798515362,0.832225768146867,1.4722539198532767,1.6818300926858767,1.90457333433392,0.48159209577294126,-1.2287040673604217,0.5027174665610736
1,0.2894890676765994,0.8942289079439344,1.431814234799651,-0.05411341115524783,-0.21589455237068017,0.04352123736923015,0.9739441374574103,1.687211095681633,0.3595999458671104,2.0386268698572594,0.6689812322700209,0.002179722976237919,-0.16555247345538082
1,0.2917582567533244,0.6629516643360076,0.9444837104975331,-0.3767083028724137,-0.1663845223263447,0.08251357606079497,0.9075233082642453,0.4886729198662698,0.19922244796534685,0.7760270446667173,0.42008166472347075,1.1446140766495185,-0.04637340258143097
1,0.7337030051720931,0.7043153568669973,1.2940290490824928,-0.21024116371038246,-0.14839314545025564,-0.2768764342156577,0.9258064417798718,1.1771255829149665,0.843100367311346,1.0108229020046375,0.11607371510226386,0.7432335939745891,0.16338885495973043
1,0.7020203433630634,0.5063192637039047,1.7009366006892561,0.27769001175583363,0.523171968479136,-0.2281685089255044,0.7727344177034073,1.2721914088012272,1.6307564157099554,0.35637011867871293,1.3397834643398023,-0.8558965240042266,-0.7395991906415955
1,0.8464086140263348,0.1175789531117552,1.1432746513521626,-0.6947742911190661,-0.21134107161578827,-0.33996996578280836,0.5975316378351256,-0.4460723785965903,1.2053135769952403,1.4477908456367539,0.18691423685986316,-0.3249225862820536,0.27701783309873385
1,0.7043825197467843,-0.2591467848061573,1.357152828895673,-0.7859995089093382,-0.4022669083219684,-0.4476323131613537,0.1414617215969789,-1.158051562816277,0.6148953091045117,-0.06081835340607404,-0.10074445966245248,0.9127840358515287,-0.43104567215421047
1,0.8622004623414304,0.47768656871146553,1.6532785679161024,0.43767094964758263,0.5773713890331049,-0.27088963090061535,0.6338021985060448,1.8419546157673732,1.3170418577468805,0.6898529799570567,0.5195499361415441,-0.5692285100047215,-0.2861401985680058
1,0.5818256270267488,-0.11754371071620975,0.9757888159213068,-0.865851404190602,-0.1719027275006384,-0.19292215112779817,0.42840616445521434,-0.5468855246988407,0.5648419504259046,1.9909180451162094,0.24100180484971837,-0.5638072190467311,-0.1222456688910647
1,0.6556939025046662,0.1951871605956993,1.9539146007901376,0.7234432606079274,0.42474342739676757,0.5399069778500261,0.06872644929770551,2.7120038510617945,0.7607844851846811,0.6725383691295003,0.4472126213430496,-1.2894525683705484,0.7714826711422182
1,0.15323089572065596,0.07658231555911707,0.9550781742979229,-0.5806833906939254,0.5056169787619685,-0.028766220891244053,0.6374408012478199,-1.0598576857021285,0.1362756138796944,0.2894089139758572,1.036333158480145,0.5190762377899742,0.6026325363977385
1,0.3151606300867222,0.13355307191635443,0.8360403326933464,-0.729501740551687,0.076766068496748,0.12862551491705732,0.6673752004471961,-0.3523617513204562,0.5114039981166638,1.0811009904214102,0.6635426804428333,0.5013026035177146,0.2250921609147961
1,0.8434709663952354,0.38078884844819255,1.2246854324512764,-0.4932971475556884,-0.3292330145872951,-0.35534164942702545,0.722492808615882,-0.793682225147144,1.620456695714004,0.3839457475742004,0.8375496027281026,0.1023140766697257,-0.2356578318321777
1,0.516068699386908,0.6310489116606068,1.2300721754577797,-0.2717061550848339,0.08610433447720775,-0.12698530913432302,0.9500718605123061,0.5856671539827529,1.4481348720295373,1.067221316397312,1.6123229739666642,-0.19212748805252566,-0.33856740056664864
1,0.6628216760175839,0.47860339590198026,1.0447922488755834,-0.4365647438025076,-0.2948508238050613,-0.21890199180016906,0.8213136636852254,0.03694450142924066,1.0913554426588108,0.9032142783154294,0.9566854639256842,0.5965643576675519,-0.4451222509120759
1,0.3602409515913575,0.6986156684771059,1.2507584997788412,0.14577020352469833,0.8096470685166501,0.09272263788225223,0.5609145965571954,0.15028104738512416,0.30071753182567224,0.1502069248875116,1.2525051012595514,-0.7120185292701038,0.5454095533348564
1,0.13430844531301683,0.04289555768247716,1.8544215990638717,0.6344089094724134,-0.1922606487153444,0.5994622641908856,0.448560110073017,3.0640365244974817,0.8224297627045379,1.0931906563957563,1.6532134352748986,-0.5043571830436422,0.3516667559928863
1,0.8865982522815584,0.12580876214439574,1.360680762692994,-0.8727754710271036,-0.3414697426927757,-0.11989261660079055,0.3275471759660948,-0.3197695285564899,1.5994954660385694,1.5972266066561616,0.13400322195405026,0.5118928145453734,0.7588507670521556
1,0.9105217712640713,0.36284761129767523,1.401956623965876,-0.2382317476223881,-0.3499587911997115,-0.6850361499537817,0.5928743139513818,0.8772236788573655,1.3449864987031033,1.5300851679076877,0.32357157688790805,0.23645408132845347,-0.698683089903755
1,0.9314246193444138,0.1420805138941314,1.476540473705208,0.776940534721649,0.4774641724165681,-0.2583859988946586,0.31879153868980015,3.007492872794841,1.6390552914784269,-0.02473269315392021,0.07661981452222172,0.7284691639652454,0.42802956429122974
1,0.8556022250438509,0.4454633245029445,1.201675107459788,-0.517784336176218,-0.31688753857631524,-0.2824780400005995,0.742756909104869,0.7975575602764182,1.1012020948112373,0.8658168979736359,-0.029745531398732913,1.2570294921370122,0.33461009388594043
1,0.5642241001137388,-0.1672261223665793,1.0158736596493563,-0.8397257575465616,-0.38114959773714296,0.09983417488660369,0.3736559564390478,-0.8740612815661902,0.5152907423319945,1.1157375648498564,0.30221292773861774,0.8967700835498289,-0.37695005626811073
1,0.5938198998998023,0.6303821525546789,1.4473049078340843,-0.12843036332260613,-0.5297426998807232,-0.050556957180486285,0.8368526201073622,0.6844583184701032,1.7884500145481041,0.8406841510778863,1.53980292182908,0.9527035750887269,0.020612914826990902
1,0.39131363007492753,-0.43402890378525,1.4573673288588513,-0.5825338240806114,-0.0013049484064287951,-0.8063727842949971,0.10205671785830969,-1.7252849425609522,0.17572596381385916,0.022128681152589647,0.2545248833156891,-0.3843474698447604,0.006804604276020143
1,0.10766816389219959,0.32646466833634236,1.9496903739986584,0.7823910365130088,-0.29160330278156654,-0.04183702439370772,0.5487088874629824,2.553544470474817,0.5332022914426144,1.3386777553406908,1.5748381304106485,1.065920742984177,-0.6311003709525349
1,0.28600317993606217,0.6172407143474189,2.0093593237748086,0.43383964451981527,0.42701235088000256,0.4194553947345747,0.6734246705214457,2.389966883645405,0.22501614406555157,1.5343242199040612,0.26409103827349234,-1.1867054475401022,0.49210203979525113
1,0.45683239532960346,0.5155991443452391,1.9884639078463902,0.43018836575858155,-0.29854300374054155,-0.011074881871405113,0.8518728730714882,2.6994047783931157,0.7920571401711954,1.4218262094850158,0.5548734271860918,0.6804120230597133,0.6092824183011698
1,0.9391992872532267,0.30763040213395454,1.357038826020754,-0.2839711904583018,-0.20048028321245584,-0.5972449487282603,0.7228184351905583,0.17512660008559222,1.3954369709908052,0.28647772187852205,0.1256539789580662,0.5982825060080412,-0.012752115181109414
1,0.8026567525088848,0.16332231031160202,1.071487997614629,-0.030522757804527696,0.47805042528847824,-0.7342027268073161,0.48112629120243894,-0.6267557384289932,0.988883539970448,-0.1564132188844498,0.439869444125055,-1.1207344362826779,-0.25622659624403776
1,-0.05586701982392106,0.6338039426209363,1.195919010634816,-0.4352656703805616,0.5143916376953117,0.3019853168235517,0.6743514719197078,0.9508508134937681,0.18782291223635117,1.5635878552895284,1.1910608923701005,-0.9291393626272781,0.046913118034211054
1,0.8462050339488503,0.010869917215888591,1.6710839098907673,0.8424978238289748,0.31689471741406144,-0.25571584792542806,0.352681953094122,3.0041239432255464,1.3580201159016587,0.11225261195810024,0.5598609016964987,0.7421269753821509,0.18748242154047634
1,0.9177033301606847,0.34509609975933675,1.431077251499728,-0.27659523567906225,-0.21379204338435331,-0.435726728996875,0.8294156107904359,1.8671250002507505,1.6150047235219265,1.3333151281319697,0.2068372577112325,1.2402389718765003,0.5309106608488647
1,0.8844874814727948,0.28028820954812766,1.2259917105849065,-0.27598136325727285,0.04509998537857748,-0.7143820037284654,0.6414504121149304,0.2108613725892472,1.3935039033399776,1.1819988770846193,0.4756344957949449,-0.740457288717191,-0.47739562864940266
1,0.9149190416515562,0.21527507277478253,1.3602600680189556,0.43945943451463937,0.7296404868438726,-0.48489992118452263,0.1984243730229614,-1.298448913119078,1.5337634999558565,1.915249177334725,0.17336235949975035,1.0308649948361488,-0.6625935114218524
1,0.15310968766738134,0.6425932336677301,1.7122022330482587,0.36899885920703557,-0.1968918442429846,0.4651812462077575,0.7801793715236911,1.4818200549629432,0.5622962411373718,0.5867283997257001,1.2867841693267603,0.764940965581502,0.7658001601315196
1,0.7145847655993052,0.4915209492789982,1.0260376846253614,0.07393125134598061,0.6589133002620476,-0.48783887629820294,0.567785755002978,0.24798038061559624,0.7211656106559182,0.081505303101603,0.28816065866141183,-0.876106069488531,0.09183245087586933
1,0.6674793000200943,0.5073862919973843,0.9940423015110456,-0.5613005308203314,-0.20295068534558164,-0.0958988941823952,0.7965903184907333,0.6043220435887278,0.6839596229396269,1.0065524131739827,-0.07327672891138336,0.9306262222134789,0.40045103074093724
1,0.6401613284114221,0.7127139581970533,1.260693262005159,0.13162120752611933,0.7854246380118755,-0.208466793081218,0.5677372560575132,0.518926637354199,0.7093612467294297,-0.09001385801150405,0.8184741429983348,-0.8354011714584311,-0.14899017882926158
1,0.8461799961134924,0.08533265082957439,1.6444771761776313,0.3646985526590538,0.00105593153764053,-0.7827342729449849,0.5043023980254983,2.4190506732919737,1.8311546939730017,0.9745749807866956,0.8943725389156639,0.9813551287874644,-0.5289695072904842
1,0.9265137640842305,0.12460611858329922,1.4273301632406645,-0.017614877326548067,0.05258255573404043,-0.859851835184198,0.5075230166796543,2.3677404136861675,1.5855743046313333,1.2486327631424712,-0.038977870918898,1.049118136893826,-0.4587705805992502
1,0.6165237111701855,-0.06285157743627207,1.0266225313168564,-0.8449333349952717,-0.00369203842557517,-0.09259876513798856,0.5267822101788877,-0.9350218052871161,0.9515487712948096,0.7829270795237869,0.5083677747893853,0.32232293934787415,0.45766050614403064
1,0.7294885890840613,0.5156645847947692,1.3574728456503085,-0.041085851542847204,0.49052244253682453,-0.3974620858627858,0.7744182180658663,1.4871807407646689,1.8413972243491559,1.607894175893814,1.3827262971183623,-1.0682830255578946,-0.41407016370913446
1,0.7892435433909856,0.3021485964070979,1.0791107732519611,-0.2472334187151751,0.23106883002422185,-0.7896123677855303,0.5118546093391896,0.4448472475450582,0.9088804557808001,0.7920317417872949,0.06891788038899782,-0.5611394489729945,-0.7074941659727476
1,0.25346758134496494,0.7871165112320218,1.5595948925657535,0.16495968520597762,0.631903998141336,0.29446473471100115,0.6976934566135189,0.9078519978729849,0.2709007453276866,0.2971277358983111,1.2435535779425004,-0.3195720470862339,0.15802201415719996
1,0.9230133119398184,0.20914856963166256,1.3443207609428944,-0.6447266952693075,-0.7012899678722918,-0.14701112210993567,0.266284808700715,-0.45340539996540885,1.5505991247722548,1.6498070170299721,0.46681508374523084,0.4791806933431959,-0.4423731566624453
1,0.7965099211500071,0.17829654921052357,1.8029258807217607,0.8200759750245403,0.22254824695436762,-0.025437396185988337,0.526593402769505,2.6730272059726072,1.2988662430782867,0.515186955411777,0.3053440289507099,0.10117165041664089,0.7108082904093782
1,0.6777210485750091,0.7721240828594094,1.53809580743434,0.07438172970318176,0.22746854238588768,-0.2866316531505439,0.927667890962811,1.8457606558838557,0.7971347685956753,2.0594387011035766,0.3419143924028366,-0.8099640148675342,-0.11367760251727044
1,0.8106124386900533,0.07326948913841341,1.0974110821270981,-0.7695790443669104,-0.3835538778087946,-0.18744364925685822,0.4748677664807567,-0.4964250200831146,1.1138787581265226,1.361280519908763,0.3657908463838052,0.25301345907187045,-0.09721648509637815
1,0.5505835400885624,0.6024592509504261,1.0153563953315317,-0.34773365083768665,0.03791814636417698,-0.10332864528424028,0.9311104732066563,0.2615946963220541,0.7479010459277265,0.5301637854963664,0.6386836479122989,0.5751742188944011,0.18290954027440376
1,0.03723607499023042,-0.06181387417740229,1.0220347262003149,-0.8840069171607324,0.3400154650054085,-0.27988877277511737,0.15679135449243903,-0.5876702642334224,0.23419111802395248,1.28089856001293,1.2040766465042996,-0.9111171853003712,-0.7076917035126558
1,0.6006111726137827,0.2158477624084047,1.8570373451969515,0.6624607616497397,0.11119493822284926,0.15047598935043005,0.7253539836638896,1.6625613592524309,1.966067376744786,0.5735409834910646,1.2334478975907837,-0.8265370850406477,0.6448166795331103
1,-0.024189726036776604,0.527554566984469,1.7475869453461756,0.02714398112792168,0.5014476350607341,0.688393925513918,0.5233806233479267,1.4547907420352406,0.08687255026837255,0.8183012670226931,1.5788394553038165,-0.7197102851782654,0.11407404063524584
1,0.27643701638937285,-0.4302195461093626,1.4206248303618638,-0.9722680125947663,0.08099050461531694,-0.2072183818434333,0.07208323018129591,-1.722814447229824,0.23174119793377004,0.7846579612620165,0.48989753189194407,0.3261182110083838,0.0213562058287895
1,0.6379049152088729,0.6622592468668933,1.5847101820738398,0.15287795200972787,-0.030055286888938316,-0.250038836460584,0.9556179109773809,0.924853282000295,1.3862726991264867,0.5663274138212713,1.320012245963001,0.27713949306611374,-0.3250958834597082
1,0.400829852487198,-0.3833488943398176,1.34869696021845,-0.9430191730361525,-0.07040840672529397,-0.32308266744408287,0.03708214591732544,-1.3707875629471593,0.6042074858244803,1.4263757688357408,0.8022445969297987,-0.5465498166393294,-0.4278892776108067
1,0.6717238513433875,0.035320858265144695,0.9794435695272135,-0.45878145126059405,0.15745988916337764,-0.7681870713142395,0.4178691024107104,-0.3990795104014402,0.7451133612049078,0.4720878261623557,0.3143053214012016,-0.5781456748564201,-0.5988803858151049
1,0.25696792489192255,0.32722318652550864,0.9256004496901005,-0.4756669591348026,-0.2626704872619609,0.5730011181071701,0.613526590912691,0.43418442269532576,0.8206149146868271,1.8029856803793611,1.270623685723547,1.0398136190288776,0.29100355455713567
1,0.5324160318488379,-0.2150145277289642,1.029009161105209,-0.8842258574971309,-0.1942226201204611,-0.1998698673466198,0.37479893662316077,-0.843352533430986,0.40930879904408346,1.0271845007095357,0.1796191854365756,0.299061954563274,-0.24939267135110055
1,0.6499797318882943,0.6414167984178418,1.8136826439544966,0.5588648991472118,0.47789011316334096,0.10640323346086682,0.6693051741552422,1.9496217291726634,0.6585380014732666,-0.051399686093226454,0.16313956198018817,0.21449768002976044,0.5704819485605805
1,0.7796921639893097,0.5339117828320344,1.7384031447100765,0.209771843525035,-0.08671013390755102,-0.2507019205291017,0.9410768690095747,2.5352503760314047,1.1449823764352651,1.8796346135667086,0.18624134006953388,0.33513903567209247,0.5949804545643875
1,0.5084909522292663,0.5745400256605968,1.278475876466947,-0.31794125857210337,0.17427642110315866,0.1502996942592241,0.9197559932126814,-0.307272250203094,1.8812165965741907,0.5572820717728867,1.3634522177529038,-0.5382992209729975,0.7861869395965528
1,0.5541542516235556,0.13034870874817864,0.9542227445264664,-0.6968959068163043,0.14488423865662647,-0.011513305989148194,0.7022906066841361,-0.6796012131688207,0.9337108754942874,0.5734085137387932,0.5654637888270929,0.35769196452862206,0.7516396443055062
1,0.7406697706411345,-0.037195478015617844,1.1671142291709715,-0.5908744019438721,0.10155213995513575,-0.4234665498023647,0.6791396654565882,-1.4027168049347483,0.9166761595422483,-0.018961842203629675,0.3235477051526163,-0.1549082242809472,0.738649320601076
1,0.39745746115382224,0.4806332894141871,1.1102879235613565,-0.5157150213273194,0.10963309175102727,0.18851118965895713,0.8285421735457038,-1.185061228414746,1.7781180202921998,-0.11431932807361675,1.630890394160625,-0.22001840805123685,0.35510099600964673
1,0.8118114366275377,0.5712486613986792,1.475845337505886,-0.10394202541117137,-0.27211807479200617,-0.3626990930108742,0.8852102443227856,1.3753076591670672,1.5064320726060243,1.3370662573345105,0.7890510680964926,0.623922175030255,-0.020961358757704107
1,0.8343253373727031,0.5222909470525727,1.6356792141969088,0.24538021129369406,0.45522865952333225,-0.5408518480687052,0.6633511120776987,2.394606121774566,0.8532949774242239,0.40489533009893175,-0.1419526599160183,0.779035235430865,-0.5756558070591943
1,0.7867479740593235,0.5781236215669425,1.5151670444126921,0.13573647732861108,0.09169865417170488,-0.29072054631543137,0.9426815631461005,0.2550897306269737,1.3852270018128114,-0.1548305786150464,0.8306274245084878,0.1130406989591266,0.14118480686334245
1,0.7304884668536448,0.4308662087657211,1.7068972826392943,0.4489692489594542,0.4375248506631234,-0.1085135730647915,0.7715072410559144,2.455750714337947,1.835358457322902,1.5194026964442828,1.356403651441772,-0.7191850210203661,-0.14603406743047043
1,0.04965973868182763,0.18929621001079983,0.9624826515225589,-0.5860480107505688,0.5178222848725079,0.26320418577232235,0.5649171328404257,-0.343908658859158,0.339807384379538,1.240591386392622,0.9317086307890149,0.017593301538595396,0.6734976460272921
1,-0.03213324492081607,0.7748757496486555,1.4626861728143747,0.0156597028408788,-0.03998091033596833,0.3353785176808652,0.9411044311838243,1.5310443777441824,0.09516881486161605,1.5402573817096843,1.0743555303400754,0.13047801336292308,-0.26850414820961366
1,0.06467461647147282,-0.13492669665727097,1.3228151836694546,-0.7856764549733173,0.6085905025706914,-0.015359246657577954,0.109973641493893,-1.3199463666274038,0.741404734991551,1.4920158845752685,1.592199553559839,-0.17794991857954878,0.46236336306475456
1,0.05498147202477752,0.5909189697172995,1.7656587368962997,0.4642716071782288,-0.5979246261474961,0.16803154381693008,0.6314296607675493,2.45664007001744,0.5939681789207348,1.8064651969103431,1.588063511426539,1.0070058942652964,-0.11176044402875451
1,0.6845449694023077,0.6936015770455091,1.221005750112844,0.19875351387297566,0.8187256971701271,-0.2446658870610635,0.47992069889207556,0.6462259501021006,0.755821344312513,0.1654170149572762,0.5054713144315107,-1.1828760491486205,0.03850699062444418
1,0.8110024007515979,0.08740843203734433,1.7261851182621843,0.8395381938087847,0.20841300664645546,-0.10528295710036702,0.4905661410463133,2.7284100729334133,1.5608182438299516,0.6569146516110583,0.5316277838898039,-0.036029772636338775,0.5769627222332698
1,0.7643100446351603,0.6908138807825815,1.545539947133833,0.06188972900536209,0.04644793457198899,-0.5102954210186584,0.8565108487958751,1.7464119402099108,0.6885778889321836,1.4546261954476953,-0.02448138490638993,0.11849037706999632,-0.33900478275880735
1,0.8458804627336732,0.35567074758546624,1.189415428429819,-0.48724960825611013,-0.3809140367081719,-0.36641725173859,0.6951479795851334,-0.30056789117674265,1.400567654359474,0.7299322082566868,0.7276311306456046,0.40599673022211324,-0.34624857177125146
1,0.46900481630117885,-0.19361884555020023,1.014123155940291,-0.8813481421051897,-0.23924940722274152,0.039199849296781816,0.405522558393991,-0.883306221721544,0.5873332045950321,1.3624288701328289,0.6736114348835764,0.43585393493909264,-0.462416334554674
1,0.6518536723426518,0.3009211506413942,1.977653985881191,0.614657496322224,0.08416562454461757,-0.3660481057221477,0.6936289311707944,2.821039810667221,1.0256368096229873,1.3308152887334914,0.8344221188682395,0.47672273091253325,-0.456337117410293
1,0.09860302391494066,-0.27217824394026047,1.2975386587499176,-0.9558952403831567,0.23588959280663419,-0.17066139867154217,0.038666218095666116,-1.2919603065860412,0.46872252221644817,1.4064814555016072,1.438128733282028,-0.4078432071045519,-0.5503112848055108
1,0.918366994497454,0.19465373920472412,1.3392660992400152,0.3081233151789844,0.5640949020923118,-0.6768356261838387,0.35881819798459164,1.5833117502415008,1.582725069967722,0.20025152822076123,-0.08217458304365578,-0.01113027015042456,-0.4966495300396734
1,0.9179891364545372,0.15662037492836212,1.3026864351997658,0.4899450335411956,0.45488305255202355,-0.5449928019644699,0.5059823301422568,2.7264484991179376,1.8571527767391545,1.2701925697920537,-0.12732899297496222,-0.01266419734882307,0.41492331103313873
1,0.18668151023305038,0.6830932895325523,1.8323068270043432,0.06590254471480582,0.4858096708892634,0.2515414245829431,0.8344895026238277,2.051876564617297,0.47283227799840655,0.9493441076176571,1.2263960926059736,-0.8552212804966957,-0.721376126098268
1,0.36047618118401037,0.30358017390100506,0.9091868930972948,-0.6606511901662802,0.339021026722955,-0.3173064525886399,0.5898485937231742,-0.09471625305266662,0.8840973214000998,1.0706254692020134,1.3396826680165292,-0.7600934320457855,-0.5604899321634438
1,0.832499449236364,0.43676513828978636,1.275841563252614,-0.5586662341288535,-0.4562293375408162,-0.08725204624363944,0.6871200119612672,1.6499697149850772,1.5621574122636588,2.0380410136569878,0.6255437103009392,1.2875493232634487,0.5359851463369267
1,0.7537296851804787,0.5945332257179559,1.2210658770396616,0.07997138855803072,0.4981228628293785,-0.3025768126715967,0.8086565791312547,0.38496626847708826,1.0387078654554152,0.47753359293586806,0.502569808218669,-0.7852922160437095,0.31159679524168893
1,0.6782093752052577,0.505074166414046,1.9243699202325049,0.4184080053103035,0.7217806610239467,0.08624670033319516,0.5445446952691081,2.712589525847064,0.8257360346452808,1.3894787103409878,0.31559184629454695,-1.2608182533257168,-0.39942221953379237
1,0.12375263126343412,-0.24705117251701414,1.312719859401131,0.8005994754172673,-0.32134434964171615,0.49773599477767444,0.08965025609343952,-1.6511069232071687,0.5788861967467643,0.936653577400668,1.5563913189750924,-0.8748929577849953,-0.4656507010013246
1,0.8589684919677109,0.10806851649329743,1.2837623356833128,-0.8689731114649121,-0.39949919229615843,0.02443510181077053,0.29101383593431634,-0.4527113967232079,1.6733563755182923,1.5134380746494855,0.6006780478187196,0.6909646070970072,0.41552759635693803
1,0.43975947894061834,0.11210796341066265,1.9816252846561122,0.7379839822230847,0.31291803634695514,0.5375687068182029,0.26169033218812215,2.4481758301503893,0.324111671790942,-0.14093089218442423,1.25679664149424,-0.08760038367318401,0.12814281815352302
1,0.42639346802396316,0.48777838257826955,1.91234016715019,0.3548430424814647,0.4792160568003472,0.26421374204230264,0.7580431944310487,2.136141712484818,1.1405688888505523,0.7839458633705347,1.5039375893456817,-0.9378410372355499,-0.4805870424701597
1,0.5246699953233206,0.5303758703271793,0.918663518302313,-0.20952646353285084,0.6859461682426339,-0.5656531693351625,0.40695578061228244,0.5084075021822063,0.48752751318700005,0.3636667768603692,0.1608090222193916,-0.9538939877107865,-0.463802853037915
1,0.7920261842922003,-0.09654248052441905,1.2031629835007567,-0.8731149470975231,-0.4017110475045818,0.013239508837489608,0.2759044016926952,-1.2268965373313614,1.0181599148753466,0.42995514952653935,0.35127039005672134,1.1476950750573311,0.0777444545720346
1,0.9158445035308853,0.0681816847322495,1.451354051982688,0.05176302378692136,0.13160872543976876,-0.8449804812694593,0.5157593615536121,1.3134081966170166,1.8879025897679844,1.6550656912869444,0.3421309681970194,-0.616013162555674,-0.4668974992181291
1,0.45944960774110616,-0.17239289309923606,1.1147047269010666,-0.7858451323416662,0.2721404927682093,-0.46291389457968585,0.3067534944802652,-0.8780852212402523,1.1193075705593531,1.659064920853237,1.1534857169149222,-1.1450138662524467,0.2598082286383987
1,0.750759263276253,0.5867056986829113,1.486322539651639,0.34355960249607564,0.49701361295915353,-0.08000571943460849,0.7928072608924436,0.21511335733596249,1.20710476132635,-0.1342950640867086,0.844261458721808,-0.8134303223276458,0.4755196594839983
1,0.0159963506978876,0.5794458808703542,1.8214427649605502,0.13682391589072937,0.24248391193977487,0.6381076467880933,0.7178435759977752,2.335591918343437,0.3494327866220317,1.7332719623314892,1.1609632253441975,-1.0642360030364306,0.5064519335836175
1,0.9190316200422747,0.08034018629870229,1.3788528800980742,-0.7019783242387811,-0.6935598382752679,-0.09509044133579918,0.1309923318254213,-1.2166443882379832,1.1128193408182794,1.9932280487592127,-0.1487114198413904,-0.37312372373821456,-0.2754155194051258
1,0.3129013427930452,0.10645972697915142,2.068857640140455,0.8178366749813133,-0.17045376097310846,-0.24301682623164186,0.49298226194654654,2.967576522927091,0.5418846839184068,0.9945537375658663,0.9841908743848725,1.125648199871927,-0.2975389030047495
1,0.309202448651558,0.07379845173782913,1.0685798574171073,-0.5061542983906675,0.6069651646311769,-0.2156454143191547,0.5734964432566441,-1.596572133286397,0.6708069730405214,0.24993653990627188,1.5232554577595687,-0.3418505150512927,0.6716274114451126
1,0.44227591777260095,0.6160977164082114,1.9659548489218552,0.4791377153412786,0.13423158606583183,0.20362181226014853,0.8431767837243178,2.486380660449222,0.44009027417924657,0.16698015064526736,-0.13466511732449898,0.9906722446867882,0.7628988806353894
1,0.8927083501622691,0.3753512893593651,1.6002354708401505,0.16607261112825794,0.07746442042722233,-0.7624811940685332,0.6205171875885008,2.001201741370066,1.208404039711066,1.1340398974970813,0.2550321980792778,0.5895092157633992,-0.7296819717961321
1,0.25857754417323253,0.5571029717699039,1.1084106572419092,-0.343580918386118,0.25304396463175527,0.3387860797463346,0.8385373555510249,0.37532547517683024,1.0197088818270288,1.1675075305312026,1.371218172048066,-0.0011579649486275212,0.5608196322509307
1,0.07018214081984553,0.7435506439977235,1.3491669183810961,-0.08647520604155132,-0.23293092039775543,0.43571232255630316,0.8651127077065272,1.6590837343957394,0.44466099398858616,1.9460817484719677,1.2708848888991466,0.21283760966562326,0.11843727287119665
1,0.5681378937396265,0.21949656509468957,1.8926436227567618,0.4546513778790085,-0.46275286986829967,-0.4417946862109277,0.6196526133707189,1.9519038996205584,1.645251566690026,0.23878697492525672,1.4348199831519768,1.3454018466485218,0.3526494260419579
1,0.6568848851841962,-0.1619368610180143,1.2936408464742315,-0.8873107144109392,-0.4135868885377219,0.09579083648795642,0.18013799534294123,-1.2128364085595225,1.3315013247922314,1.6279917287250159,1.2942874629546208,0.3147632109322047,-0.7568233908180954
1,0.7856183173682403,0.5419328414918425,1.4679563415405932,-0.03521509741812259,-0.058516003231608354,-0.4829169057367185,0.8729988753906303,1.049834761004132,1.6433583822835638,1.1262055154223571,1.1961661105385342,0.04187655623344866,-0.5498890790220179
1,0.9012319917043555,0.48593801058835895,1.4915469420719667,0.5215947113318768,0.8446768412621772,-0.07667316139558021,0.09263485989396898,-1.1722236334110654,1.9639859344981,0.8366214451593169,0.19712244627507572,1.3489497527338363,-0.16002218592185713
1,0.6645148537549712,0.284510081542032,1.9578812980107498,0.5279465795714697,0.6482513395763112,0.25402100542740286,0.48632904360932067,2.7749996855969483,1.0788469252162245,0.7564266771749422,0.826013110336305,-0.9284895914840283,-0.5543571697077357
1,0.3636556474136048,0.4951390644027628,1.8228473354692258,0.46520312298247474,0.24317698236586266,0.5388715414485497,0.658838729456345,1.517280156784765,1.108699323151057,0.6402593811350946,1.416967284334063,-0.6296690299217768,0.7814477605040462
1,0.39251386977589114,0.3795659624191994,0.9819015208711255,-0.44518695428003924,-0.1804926197209713,0.07230280718953398,0.8740728196424125,-0.6738295727728612,0.8463154140125341,0.43598707726586916,1.5476076817027564,1.0454937276841454,-0.3054479897881075
1,0.808954700608325,0.5185490555904666,1.7257306179748773,0.2459576551119981,-0.12346000955272013,-0.5244669615222572,0.8057275372014179,1.7431872983003551,1.1396086600441264,0.5123693728670549,0.5511298036864112,1.1932935944766436,-0.18852022250002154
1,0.41043161769759284,0.8481962868530002,1.1999701895420938,-0.2214300533200967,-0.24099729886544125,-0.1483171094212669,0.933215445906861,1.1484706796040685,0.0639199803536909,1.4189543818584067,-0.11621698801989191,0.5629654242430173,-0.1979768482557026
1,0.8974528173579228,0.27218805348157316,1.7303697114907353,0.7053807982590291,0.6631744819685162,0.08710750654427123,0.23462697674582567,2.785228613528104,1.218434551459119,0.6622832069980096,0.14146242033744424,-0.7739579478994807,0.052536950223029066
1,0.20285450479006592,0.45417494708613687,1.8849877288003394,0.4265318555652716,-0.08433045735844107,0.4886625223399185,0.7564178008284524,2.5562924004456873,0.9582962660488712,1.5263556255777275,1.4216345412636384,-0.31006035001989307,0.543189293834129
1,0.8974722116323139,0.3270864678465278,1.4374676227655616,-0.16365436067245598,-0.04496018102773431,-0.6481917895344822,0.7423228652917342,0.6087785170144422,1.886062901360631,1.2549590396198644,0.878246524538019,-0.431408998611413,-0.394133357489745
1,0.8118655141459534,0.30179159665905797,1.1902112422856324,-0.5841266755651661,-0.6003099854753207,-0.1187515087101523,0.533218555013676,-0.4894028079457782,1.6416405513427161,1.1350999669431072,1.0435320247341902,0.6328454855922825,-0.5299249255145724
1,0.5257607805511443,-0.1702751820518822,1.0821462563276616,-0.6236172456259177,-0.4592963958272925,0.5362910310831394,0.3354702396901822,-0.8896824890053217,0.865284005602851,1.8965982305729605,0.7810635906555541,1.2181682084486587,-0.7416462856473017
1,0.38324256929486344,0.2925307839536979,2.1257420895590133,0.14812214573943935,0.7344805228633344,0.5957410030110811,0.2892937068228398,3.08474112189918,0.28588269280266515,0.135433040284165,0.09778219256373658,-1.0657758840768574,-0.5133577151617423
1,0.34939518629294386,0.10388932677624489,1.07754020590769,-0.7585285810079182,0.27589832576990286,0.17513846472382338,0.5637739119590959,-1.3749036519706148,1.4423023708620673,0.48411403683573906,1.6649906699492985,0.043904226384060774,0.5209218176964872
1,0.480894027685267,0.3758310017897407,0.9629632922063973,-0.48784509097159956,0.14748638115781362,-0.2686935743488965,0.8173485778365918,-0.5703126371213665,0.8049664909847527,0.3073455593798615,1.4198357066932306,0.17052991072814194,-0.46867225313596694
1,0.5759892241041844,0.6188103958485786,1.4341080334047591,-0.05350845018073697,-0.2644654483336198,-0.09131681484246337,0.9585698262119361,1.7622073278431187,1.7773555103913334,1.8235137043165919,1.6499391378261588,0.5884891681657836,-0.05605467329196123
1,0.5522926404389836,0.3557984812936701,1.0569014890851411,-0.5313498472320909,-0.45727434924846105,0.2662849846465589,0.6615586265159074,0.18402730273634238,1.6058618314634776,1.4995612085351175,1.5452486569172528,1.100861632568018,-0.06225013455637507
1,0.8708324269423132,0.46245854502880035,1.6552980979651852,0.493667126388625,0.7797066615904314,-0.054733653802021394,0.38125387517530007,1.8436584971178653,1.2678862874899355,0.2650188110754427,0.41061370379846385,-0.9429975172469687,-0.32549199156566133
1,0.9099273747604052,0.1887660567513201,1.6305935584399742,0.4502009585717851,0.27187225211250954,-0.6407013135937267,0.5593803734415369,2.2575344408194145,1.511820814306275,0.5625692249001636,0.5147451338774535,0.6726996041896585,-0.4145323167516914
1,0.1513678375342506,-0.24989434418020912,1.2938541649413287,-0.8778402328468383,0.31997477783649975,0.18113915680079534,0.30692225891484215,-1.8210925982133657,0.5522501604066649,0.7450519306237431,1.3693066859532148,0.8847819753098292,0.28005293917356266
1,0.49827419950950147,0.7066680911399441,1.6812593802783677,0.22644129387888923,0.3577561513031229,0.05802615119351766,0.9040839797324691,1.441301318224846,1.1782064684729814,0.8336746117640542,1.323152170349123,-0.4954940959685812,-0.13971521528979192
1,0.19144857234889165,0.5881517940377593,1.0992240772778694,-0.358698989866697,0.3582299195359525,0.06999384036967318,0.859131667282834,0.10816121875203555,0.6418091880799132,0.7699766405874704,1.6774234525569747,-0.02865740456316268,-0.3826248307108736
1,0.9397650926935172,0.2673506221074949,1.395886820303123,-0.4819968085611973,-0.5669581736501494,-0.49949101925587436,0.44356084988514993,0.21739775445984066,1.2966382238114988,1.4770206241225392,-0.08434997654240246,0.4177373677167353,-0.30222404094237737
1,0.9289143357894133,0.3434687424476434,1.3936745940848387,-0.5724382459758706,-0.7970374178719075,-0.0671666264174875,0.18037309486685052,-1.3514931148470326,1.715013510642181,0.7228538975117175,0.32623531018448493,0.7272446267081718,-0.3658191460723531
1,0.8897470971289752,0.44553695804039983,1.286676589296793,-0.49400270348772046,-0.47992082457090274,-0.29618970248669385,0.6617469238544698,0.8727818709970785,1.283394579817355,1.430879012929459,0.20922326087955015,1.0106611350075854,0.10488088582603017
1,0.5196279305579127,0.6475153435026642,1.695931058158952,0.31035440690587257,-0.2159453255291035,-0.22455662676910085,0.8981214171092445,1.192751334023128,1.283433644324151,0.6830826757174555,1.5361158597475262,0.7621799943645193,-0.4617887169986164
1,0.29567127245704367,0.2104310266847859,0.978610038520304,-0.5878806077324965,0.2902250259953389,0.21780741222664407,0.7229977569240513,-0.8313204544674202,0.8541411215112285,0.5050574111072442,1.3092760272456507,0.4285986707628069,0.62266942728891
1,0.8901906201626479,0.048787975752949075,1.6623895221180662,0.329124031707032,0.11977838886967895,-0.7812734581417936,0.5166645845380323,0.4813484312664127,1.928830005119189,0.7058410568454816,-0.06263835236151505,-0.8240348360219001,-0.2796854031792949
1,0.8570429013467582,0.12069181861265264,1.748887498059563,0.04493629146560485,-0.2791982898132667,-0.8651236481096559,0.41423437587446366,0.2266077592963922,1.927712564032177,0.1812540095912545,0.09285418570899545,0.49155153775430716,-0.5921293736252495
1,0.8827079514203081,0.24962419685184406,1.296321285403149,-0.6702095880263362,-0.5465039509805616,-0.30099276156237464,0.4019401661531992,-1.5153665433045456,1.9188416924447111,0.8048596406887094,0.8731538683987429,-0.3409401999544398,-0.4185094316987272
1,0.14498005494800736,0.10015835193041972,2.0551115532231012,0.3666553441222973,0.31699662317573163,0.7232153271702882,0.49197214358916413,2.9855364256112225,0.2923681824784704,0.8190913648633578,0.9968631556047721,-1.1353381036622607,-0.1574974537154089
1,0.1360046340627004,0.7328765434776354,1.2040295090760789,-0.3443652421492932,0.44481933899833365,0.24097785566872434,0.7908716765252433,1.3084900290115458,0.49498843896486616,2.0387644787343318,1.1076047459130822,-1.1324692728539572,0.34099221060410634
1,0.43607133288626176,0.42902618022335587,0.9195579869278422,-0.466581316626042,-0.08592108018931491,-0.19280373541586568,0.8589215112944258,-0.22796961024966667,0.5581051025209678,0.6055894176966946,1.1022660475032398,0.7348297414076921,-0.6019563054226984
1,0.44581153038732113,-0.14733863435095088,1.8019603017861345,0.9696645456147315,0.002160334491152202,-0.14955842739169356,0.19333462889194786,2.9774163320230578,0.7618814378117255,0.1525392176845898,1.4203666203583771,1.066721065442803,-0.0576602505913294
1,0.027957132718072833,0.2810805901942616,1.94433958302754,0.7803115769234834,-0.14019833461667364,0.14435910332352314,0.5921306605619474,2.470591103961965,0.18975282770409574,1.1015917793455843,1.516558632689188,0.8834351866442032,-0.6381025165799024
1,0.38851157963450317,0.5965774444219507,1.980071922965255,0.5597203588770473,0.24630178442028927,-0.03741786890410103,0.7903470465160274,2.026304020729552,0.08696960176191255,-0.0812681750670839,0.8124243712999478,1.190696989529982,-0.22988403742757946
1,0.8752602809633988,0.003609080457178105,1.2862172044177003,-0.7313235497991579,-0.5650094639594583,-0.2435197686419739,0.2943268479530283,-1.1257833720211112,1.100841652771888,0.643998195919598,0.252988366074679,0.6195427570358782,-0.3835092272634439
1,0.8336454035996482,0.5157416555616168,1.513750382320678,0.2404663780881346,0.5972749617413314,-0.3339856373013873,0.6883982387851183,1.2943990801399023,1.6073672448439087,0.9913659172412485,0.8314693457206866,-1.2043307944945016,-0.3023917567419795
1,0.4547376589613161,0.674821738355208,0.9923728280904764,-0.3226957627213133,0.12240846342520885,-0.11617119295279134,0.9313366022719796,0.48590570130358457,0.3885508698552657,0.2966991097994268,0.3783484145506666,0.831925221054993,0.13880471870186006
1,0.9157671390867119,0.37939024588509945,1.3552141310638455,-0.5121637527631772,-0.7013062282529982,-0.2724466949611471,0.4142833124491516,-1.757550829212086,1.7422031808542764,-0.04954187635759613,0.3621282200913243,0.4264646984404301,-0.39818860491309427
1,0.32694514799059926,-0.42261602506600016,1.322790895858937,-0.9905581963164011,0.08700190616916713,-0.02219851764511496,0.10359707451318459,-1.3684537626935116,0.22252566372400018,1.4105335272993902,0.09910689677725729,0.09799735097687501,0.31652448649927
1,0.4715336594864377,-0.22314346922533002,1.1038864555570636,-0.8155050042063495,0.1376715761113452,-0.5035243803560284,0.24992263529440226,-0.800377189386889,0.9143415517466904,1.687517166296256,0.9377585010920654,-1.1667480147304141,-0.09800688492856313
1,0.944888666893275,0.14118500100427198,1.4828832561681995,-0.0002468536027141175,-0.0007728170570527524,-0.7387182376418661,0.6740138775962943,1.458374265267581,1.7660690583925407,1.4547906077941968,0.11603276294979462,0.004797152940668292,0.010507984797496928
1,0.7791788365099958,-0.12594817295145166,1.5018653824861288,0.9233441822931389,0.35570423769631304,0.14454020308884855,0.0042598123591470185,-1.7347141570366433,1.4911013536478024,1.4677722992310562,0.9114044694838085,-0.30975845605957353,-0.1261656577150413
1,0.4433089628293711,-0.18567326916125682,0.9714869189351863,-0.4089521989015173,0.37502801015615667,-0.753596516895015,0.35242641832818106,-0.9499135001991038,0.3369232835459323,0.44297881680830586,0.35230193578315405,-0.9992149124209807,0.12201974022037987
1,0.15667122477078613,0.8093951630855984,1.4676005708685942,-0.18304734305878848,0.729028035025826,0.20294316887672229,0.6275554673108799,1.1027469935561276,0.40006652417448546,0.732680983681753,1.219765650410228,-1.059545297389265,-0.31370291344115964
1,0.44618332445687764,0.6271971178694079,1.107768000686441,-0.34384355738268,0.4024816822479377,-0.19793092703402534,0.8249869402752666,0.3181268917671407,1.0543118771623847,0.7730681933894905,1.4116393236052458,-0.6085791840889662,-0.43312507920630305
1,0.6375324334940419,0.7914912832932929,1.3659934324411551,0.2797617117129599,0.7093659380371455,-0.15575775849415177,0.6279115154868508,1.3340353756933114,0.5178058193508704,0.15059411066196063,-0.12341098193333766,-0.4479805089792621,0.45387238743394076
1,0.710372637477452,0.3861654682116439,1.9063975478043786,0.34683113489383277,-0.24157117927236513,-0.2832324908849655,0.8608895895062932,2.9321725008570967,1.0495576678014402,1.159718905304945,0.32120241084491175,1.3372797477788891,0.7014949221160207
1,0.8778327327269847,0.02602908132930752,1.2650973407742727,-0.7453184616017517,-0.388393320021055,-0.3149452133550139,0.44097679342952567,-1.3237006164580571,1.1986621970256626,0.14940258262941117,0.3282490525683427,0.5459818183624872,0.02866660262177856
1,0.8350799422646462,0.5608605624682159,1.3383720358334263,0.28450799644757696,0.5951818024327185,-0.32069310940184953,0.6796835672520709,0.5700524967376752,1.1110575758214738,0.19516925946835098,0.4243559719197504,-0.9102070534420934,0.17720105599411373
1,0.8988718214720424,0.264726985311635,1.6092173961104816,0.2333938668786795,0.0075766333933366785,-0.6305406961560394,0.7401947905929215,2.035038209450561,1.8147810296785645,1.2048713158714857,0.7596483999735978,0.4704746800152517,-0.20257991457736602
1,0.1995575874510922,-0.1767131985187326,1.5455602011643939,0.8101868876636327,-0.521689447667385,-0.2642715703735168,0.03997329536992971,-1.6490869186098545,1.079800037592121,1.5189166771032274,1.6016973546203341,0.575366218305986,0.6490350271288714
1,0.7807481241111196,0.34595892947331974,1.7705002313671723,0.49683215037968875,0.27240319863834844,-0.20758109317483217,0.7974110617975106,1.4251301351841177,1.8412827477532514,0.5996992979952236,0.9964179556601357,-0.6094864861252668,0.06775860266459122
1,-0.012062953293861589,0.5767507671053084,1.1537317906583557,-0.07916047706156706,-0.31123072012460196,0.5840971059682895,0.7454526333185613,1.0524289195250425,0.35931756971778056,1.7932278972186682,1.400854439314904,0.9048820205237798,0.045825564062391355
1,0.8758535155850663,0.3682011324723963,1.1868405108057105,-0.11102249805589007,0.21996863601065952,-0.6801034973688869,0.6904687081712316,0.5735137827680636,1.0610465638924593,0.74715207962069,-0.00892282938119146,-0.38486343451197647,-0.2030008709612312
1,0.5160509113413915,0.6589817823455092,1.1480088010557261,-0.3633072745641767,-0.1532649986118796,0.04418518118453112,0.9179135766579236,1.2517844160624547,1.1549527476527037,1.9998140287170105,1.1259477683659511,0.1622320047161201,0.06512836776783071
1,0.8516953912373173,-0.034436443284876536,1.2921251993551575,-0.3472364854943478,-0.14586460046905367,-0.8396901062160467,0.3912427213309177,-0.6681889100064922,1.0666605327782528,0.716375508899434,-0.022756905444311915,-0.7543452610072782,-0.501617767741669
1,0.5354487827711627,-0.23256549178784564,1.0866087693718,-0.8337607171020508,-0.4650219380256529,0.11050669794642677,0.276380052611107,-0.9766562975011519,0.18798732414559505,1.6657658699737738,-0.11256726369389586,0.3956773413679371,-0.5450209262045184
1,0.5507060776516537,0.0926407433164796,1.8908956859204644,0.5548944402401883,-0.36307234645454295,-0.6018826781640673,0.4449807559395928,1.6631812757764395,1.780395711339951,0.017225526822795295,1.4701942144479199,1.291234874866757,-0.25055397023883885
1,0.83785918078106,0.41316743423577995,1.276025771432293,-0.5454105397473175,-0.3118503303849394,-0.13293756703951373,0.766553532273487,0.8611371519927482,1.5280898045796016,1.2214596506488884,0.41529868070469045,1.02495125313723,0.7169249675216307
1,0.6042146652182935,0.45707784697528814,1.0311131025739053,-0.4972404912181079,-0.07684018961463213,0.0506102544347453,0.8627201639577075,-0.13128771488216096,1.14901209730457,0.5492744610952855,0.8147322723097445,0.6119690432844287,0.5328707990244688
1,0.6604350518883235,0.16385851274598037,1.981271533132265,0.8053422918444503,0.332583592294,-0.0004874216349434588,0.49072569682430306,2.7203501817676026,0.7370156749264711,0.06363974608734776,0.6963277596789352,0.6160986294742845,-0.05575018225217765
1,0.31661569990186267,0.46394343241269226,1.9779276894275013,0.4974085790024748,0.19555404650474295,0.4517237897768932,0.7143451113992186,2.3800666732501714,0.8468342885804051,1.2050575986027523,1.1026459335534635,-0.607308004474584,0.40813424692169664
1,0.8468953737160918,0.39455336401132574,1.2573522692972758,-0.3853767180098335,-0.5937603569239194,-0.3542689741598198,0.6110866695562094,-0.5064363432933676,1.3290860694281923,0.31154886255510195,0.7217589390417086,0.9922886545045944,-0.6181760433846628
1,0.4863697294525545,0.04264336970908375,1.866282980403806,0.8019232594194448,-0.18621246694083732,-0.2707797766577138,0.4989211517976576,2.472868239545199,1.5520180928366156,0.4470829868053928,1.6317988065585598,0.6638089920902253,-0.019418959374214784
1,0.3332590572507846,0.1881327019432964,0.9925562501819882,-0.5807973130482856,-0.13530409456854356,0.6100181152341585,0.5217711972072098,-0.20214195508528388,1.1611106118642822,1.1541815592389821,1.458439460131919,1.2109647847079854,0.7169929757197371
1,0.4731103765743091,0.5534044471529567,1.0573573873398936,-0.350395578765478,0.13640169115657355,0.09488827140287127,0.9217449392220216,-0.03363208066812273,1.029490550925901,0.5707330456022233,1.040371445276785,0.25439655338758005,0.4889344017564645
1,0.5403015256689776,0.729822104746787,1.4365160974924618,0.04096675710841807,0.5636574048887141,0.013564428428954788,0.8248806343996308,1.1866004889551893,1.31162047814326,1.2807109205522305,1.2210615956377517,-1.142410504821085,0.21551802168782352
1,0.8112548390660164,0.37698992096629724,1.7796285170483706,0.21473445644739214,-0.2870359023343372,-0.5095481367593782,0.7822149322982803,2.8224440286482597,1.465002347669115,1.5791674309055375,0.7128223563094095,1.28634062992729,0.16692214286153595
1,0.09197008739771899,0.20657390627571756,1.1031054416249724,-0.32372111555506783,0.8005999031443172,-0.04946189480557847,0.5017947343200567,-1.2444335504930315,0.16625056441872071,0.5552210528819347,1.5525264301051473,-0.08404583417339762,0.7841268264538395
1,0.8146753590756005,-0.08767120491143882,1.2566933410187122,-0.7087039100337353,-0.12721946603174364,-0.49817869033234013,0.4830858804231897,-1.2512333644001623,1.1356310555227371,1.1953312821231246,0.2660280977017496,-0.9141392763454527,0.30605590562267326
1,0.6608562156703959,-0.11086038595492195,1.6748480961806163,0.74104713205547,4.530306632839166e-05,-0.5961417970662799,0.3089726586780497,-1.7453677061792998,1.5956888695230644,1.93383359418297,1.2735838971980895,1.2624642019105479,-0.03609896840996685
1,0.40880680165314986,0.6557819309900889,1.5146108928666335,-0.027115468980073856,-0.10576222099503928,0.2369584615187667,0.9653651078565286,0.0417442021618748,1.8079405801868782,0.018364475310588463,1.5823213325291925,-0.04255381433336991,0.4799668819256606
1,0.8303350425546491,-0.14495197657889192,1.4308732617734041,-0.6447152357662214,-0.24330506665360838,-0.6048016341834426,0.39919906387744303,-1.696736328234703,0.9729243294884452,0.161311565657019,0.11417525078072008,-0.318229350278588,0.17935457891085838
1,0.567106700894415,0.2334252026035275,1.8772106231075334,0.7255377467755126,0.13798906041854858,0.3377013257696822,0.5835338994284041,1.9697004301125232,1.5247923847002938,0.6043357040706621,1.1594095442158217,-0.7510799762912692,0.7717210862724406
1,0.5857041916404104,0.5684567952654793,1.7444996393752379,0.38177178797103534,0.482863584856383,0.19863144796362406,0.7626523508184557,1.1343575661734782,1.5270488165532212,0.5711410554680229,1.3093261528129254,-1.1285547231352175,0.372778642813012
1,0.5083298351255879,0.3106822616607237,0.8324178315038977,-0.4252369150676315,0.3793804162685312,-0.4348469232648541,0.6972461682524841,0.031545127684966756,0.37761946392229817,0.6181722765556822,0.03759718780305754,-0.3415427669234884,0.21749377496601596
1,0.707331580762522,-0.23515167015458754,1.2498579194739117,-0.8924101163860321,-0.3409895011971227,-0.14792835641413932,0.25582717919294384,-1.3469367902160885,0.6912578973872846,0.12893791025653098,0.26393336508604537,1.1363029248864822,-0.10344215499185372
1,0.32789481481610877,0.7025115521389592,1.877535001279079,0.43429325163449406,-0.12656103663948218,-0.04611019969327204,0.8906433209055832,1.9344585083907477,0.5601246427082409,0.9768917012615964,0.9722192725014477,0.7764569474866314,-0.23771867561584492
1,0.7996886858753696,0.4875630502907426,1.7749824818756752,0.10975544606732765,-0.38673234605108864,-0.5154259567043706,0.7567878948105398,2.4043459853739337,1.2538593192262915,1.4861023438371124,0.5369413206505728,1.3576326963685537,-0.014714427726273072
1,0.649348066979607,0.518638643857256,0.9930492981768575,-0.06310451683133009,0.6781202864809744,-0.4802977670668104,0.5527067504283647,0.24536953722427257,0.7733634315233516,0.5177480256193744,0.4541870953045606,-1.2102273912674666,-0.07305620127251589
1,0.4951003626184393,-0.3667566730163325,1.5746047354109711,0.9747793273983697,0.0658497063747738,-0.1830137933423894,0.10943048246977817,-1.7243486681405853,0.7569064363902416,1.6296934360823856,0.675125370846588,0.312356593878816,-0.05773391500602998
1,0.5807445224335641,0.5148815135667972,1.8414976434802444,0.533418252766423,0.26870155458114847,-0.18319261487736427,0.7808360314660725,1.5113783983726223,0.939781189570391,0.1730737496922415,1.4395997937685567,0.3706339352248156,-0.6234189230093236
1,0.9123649950287828,0.2109361078093212,1.2805026788435996,-0.6898575247805827,-0.5684594674910716,-0.1936479929796271,0.40429059368026277,0.025957450693230077,1.5173786613814964,1.8247621630203261,0.4542586628382105,0.463190502194756,-0.14515558342105672
1,0.6143992266383105,0.2226337126688288,0.9145170304007129,-0.6032386662232325,-0.07042142312212706,-0.22752527006994366,0.7611676465919124,-0.5346957878004521,0.668437573154778,0.11767594038275861,0.6557187183318417,0.8518784301933535,0.01786807457996409
1,0.3082516698005785,-0.11124001588474514,0.9410673196728125,-0.8078560877836083,0.19675714689886445,-0.2221719473617928,0.5092099688543545,-1.0195967620060518,0.4071093157499153,0.6461755657080283,0.89210467252561,0.21802940420728523,-0.10431185234159268
1,0.4605677544832881,0.709855638769844,1.340063362223914,-0.14993116928197445,0.13884341160623936,0.19502400601499217,0.9592751370744192,1.6015150250094188,1.2420114282693193,2.0159712996467887,1.1065757490562411,-0.340381458683762,0.6242134949340479
1,0.7251713889114858,-0.15912299067396524,1.1818187668550029,-0.8280267414191906,-0.29526198870021125,-0.303920561938942,0.3671843754222556,-1.2582355407681165,0.8897810356836576,0.5990898294247243,0.5237612383836768,0.30301569166885955,-0.28066038256221043
1,0.5884208017618537,0.6117560899511199,1.9402649352432058,0.4132154373148466,0.08425255247596174,-0.2251262150787291,0.8783351849096748,2.4525579813326512,0.5922590412311622,1.456009646642218,0.24081315129962963,0.1512138570175512,-0.10576599996212421
1,0.911283669460989,0.3821187436576324,1.402436527841169,-0.41771195041270387,-0.6441355306187803,-0.3971769963802393,0.5028484644733948,-0.8890090840019993,1.6308629856740389,0.25601677815602375,0.49298550929432117,0.6458617225252665,-0.48956332245959416
1,0.3163617598670371,0.4244199026165566,1.8642707864270138,0.45156297727741324,-0.013564622904583138,0.44264282667206367,0.7745800194644719,2.84507545805016,1.295049368456886,1.8564363895003313,1.5218037461234544,-0.47288440277382904,0.6361687383036563
1,0.40430244205936045,-0.2128150224565296,1.0329107800651296,-0.8004779378713682,0.28677972682912617,-0.3709820796743725,0.37331589280593497,-0.8393606648366412,0.6379924352912116,1.7637901961968367,0.5778635752566571,-1.0958036197743346,0.43802669959193263
1,0.9439911532344255,0.2601984259322531,1.488023339002854,-0.606604073064533,-0.6665941172623336,-0.3531056332718804,0.2509983926730105,-1.604299584840219,1.7398611156583543,1.43269762893688,0.3150298676169897,-0.7983971203108682,-0.24471497890541594
1,0.8028268753410933,-0.0009920383361021884,1.3116274395831795,-0.7774695086502361,-0.10745844544671504,-0.44984480742476884,0.42618481302635536,-1.4944547857630828,1.6946406024724132,1.3895607243573573,0.860448975226772,-1.1589407035797499,0.4353244375529186
1,0.16148916089445076,0.3374454572365862,1.0907961374049933,-0.37130527748757014,0.5454457379189318,0.26347609476681955,0.7037056809365528,-0.7500538726453516,0.665161312329921,0.5185602092770102,1.6344773916040163,0.1344352744375088,0.6797705780514629
1,0.9301113595446389,0.35245865660062337,1.5235626684962034,-0.18434248579367724,-0.18221246426325877,-0.539075564044527,0.8013825566161239,-0.36272934251762146,1.7863418880202617,1.1066060955598658,0.14602552905736435,-0.9587322725095259,0.314017436057493
1,0.5140119377119394,0.5499369585360101,1.1020527647616605,-0.4069198035462253,0.11054087816475147,-0.102212966721595,0.9009714186201682,0.25778173220886225,1.372713491238549,1.051188627259602,1.4634056961066753,-0.2016242031757891,-0.15116535409890497
1,0.327199158075145,0.8156786569390092,1.2992178891616262,-0.011569886784124853,0.07128201236053912,0.18840986408025873,0.9794318432391782,0.7535440760808501,0.422550361829491,0.2553722222487742,0.7956865376755097,0.9448686806565929,0.5215210734540439
1,0.4385868994865473,0.21535083171596642,2.0681970044156452,0.5928897372127602,0.3686048162501864,0.4643885411106009,0.5449362640071959,3.0904621038202356,0.8372091075937633,1.4914626475680044,0.8670310614912459,-1.2106020232100518,0.13939259304152452
1,0.4694931423127254,0.5418318764318772,1.0576129836576973,-0.38645632403814334,-0.02267215312505454,-0.05249469522403499,0.9205334269090593,-0.08539743339075079,1.1196829880610992,0.6933394355881618,1.457670806926527,0.3258021810327685,-0.2753529608119904
1,0.6612259725784332,0.6396268559012256,1.62611974963901,0.40261670494571483,0.4981254970814183,0.07468532513964111,0.7643251142444766,0.8283606507831129,1.1197750368874113,0.13398773517545506,0.9642437582887177,-0.6836234983611483,0.39307109194956436
1,0.15159363867276918,0.25673646468195843,0.8182368071742391,-0.6645859522802614,0.20778538868735888,0.1882689394211145,0.6926077899713744,-0.029636059973090267,0.13078233849645157,1.301667460731142,0.34408052893822294,0.22761850848371634,0.38925175031197634
1,0.11459510374063567,0.6918724688782515,1.0959195904744075,-0.31856962322404064,-0.04674279486875103,0.0922931207260641,0.9422369586008585,0.9167165708905272,0.25319169220516563,1.6600299990142136,1.1608628318192682,0.06772212170278857,-0.7397538032492369
1,0.24883320821544935,0.17042977077853555,1.8998143740219295,0.7530339244146003,-0.2988286206275968,0.23858675246368896,0.5354602933209766,2.5117309131229577,1.0840797689000026,0.6774383791760591,1.6821113270448664,0.3325870421751953,0.3955599772866818
1,0.7518067034934746,-0.06406620639351526,1.1403044155223192,-0.9138531964387365,-0.24970944658310137,0.057201476468803,0.3150325677380918,-0.7951025749447209,1.1161431886770534,1.1753285766883061,0.3098009914589607,0.6803370719781161,0.4470860833512069
1,0.6192732582273831,0.6211799963767778,1.863133298304693,0.3214836048227675,0.4834955091971169,-0.3118804174682314,0.7520711333485831,2.503337903246858,0.3988533913284143,0.04443408587986275,-0.005114483337710057,0.9258470473532272,-0.6745710031854151
1,0.8124019073114983,0.45292912888801884,1.7768992410919253,0.4212567185608759,0.791813499540533,-0.10536452240407147,0.42950259187956075,2.8093761048428973,0.9303055916374379,1.3731703508501982,0.029766324456483556,-1.0672993601767649,-0.5818269171223902
1,0.11737512552429791,-0.35430166866446167,1.6783127046073125,0.9418559822558525,-0.02916237781874229,0.1736545462586077,0.2861834428693218,-1.753640939412995,0.09431180800351274,1.743238267722094,0.7775992236065233,-0.6343545420895318,-0.5333255193917582
1,0.736721379896209,-0.08076639550818906,1.0816312423102095,-0.859246768397315,-0.4181194540542529,0.11988121082268423,0.2692575132319112,-0.706222365534775,0.7837859022176555,0.8498716991710961,0.06569887757030221,1.3431919579776577,0.07347323793499638
1,0.2687018486950949,-0.02276058613161667,0.9102292907777481,-0.6972921817300717,0.4189305866369826,-0.4281350320045012,0.3936764804361779,-0.8366316278900772,0.48837830319659553,0.7767074383678075,1.0389495848700294,-0.6305915080194512,-0.20864470031178228
1,0.6894886324585324,0.20586164439825128,1.967725168141396,0.814577430852011,0.3211967620152801,0.16747810716569078,0.4530423079996341,2.819959040348188,0.8108541649551049,0.12601927559251694,0.2514091034516793,0.3224622825641006,0.5084372088927402
1,0.673788883529674,0.16338432928521748,1.0635017122527752,-0.46756542008619717,0.3359108208883471,-0.43153623155390114,0.6944947654273528,-1.4237564202935178,1.3262274491325878,0.2940050682288615,1.020365957559771,-1.0711360708425497,0.4663671430660623
1,-0.030402414153908347,0.5678915087053021,1.9094042822730855,0.45985553312079575,-0.6081631640191741,0.13587531700049282,0.6326202279554403,2.6034023026444597,0.046224739237561686,1.6241706883618447,0.8075193990713079,0.9399601902081578,0.24362739738749095
1,0.2909086816807126,0.582815428300407,1.9695709730909874,0.5323844047440094,0.11077052098754973,0.19086881100740785,0.8172305881757812,2.019754476148967,0.46506362465453377,0.635041945612534,1.0193901333587239,0.40289952147822605,-0.01681621295339275
1,0.548912721069407,0.5289498503502884,1.8113974527323116,0.4144238521103499,0.1503420033096237,0.047129115337825475,0.8963420102451648,2.4961707733688385,1.5080130710339004,1.6399281310247178,1.4041721810079493,-0.315882291382412,0.08463408031936426
1,0.12592262029568893,0.6157661916142415,2.002609750343744,0.5069913033555778,-0.37973206817096916,-0.041251354388406505,0.7726976772875237,2.385185304624085,0.04678293987190919,1.1337005164615013,0.489188912069885,1.1979428693023242,-0.036643607435382086
1,0.7971451749002382,0.11138069847930318,1.2162066437877417,-0.88355322254281,-0.31439585851189433,0.1577928745374615,0.30917690054399427,-0.41126767362000427,1.6402069680140745,1.289035377428551,0.7030552840628588,0.9830495010463638,0.679749323692804
1,0.8416479386882947,0.5331318727937117,1.6402888392083514,0.3739107625896597,0.5559447592524907,-0.26087759498333607,0.6950244936079745,2.21306424435158,1.2981406966756939,1.639704503899121,0.47850595004905594,-1.0276894569007289,-0.14783042393731682
1,0.8388675440239046,0.013764705188651263,1.2226535461744477,-0.45285525446606784,0.013138460645459255,-0.7253686822078033,0.518256475334808,-1.259184356740819,1.3522153636764935,0.6873112554523018,0.575390105940995,-1.2724068766143537,-0.13101321246773512
1,0.7695851639092436,0.5641414556243268,1.4803900500581149,-0.10466266093933639,-0.17306884951229692,-0.14047038318466437,0.9692063620207731,2.2489249573875965,1.5206908707910254,2.001292959083235,0.5845801102442936,0.5881408133445951,0.7252423206899581
1,0.38877273401812357,0.32466164612180703,0.8572981934658013,-0.34442059353724824,0.6337435919071058,-0.3596803464783319,0.5919236123194934,-0.3207676000275528,0.5166964920237347,0.7077685166940535,0.7518785836232234,-0.9174206393420659,0.30250724271848806
1,0.8775428506242317,0.27846489652900697,1.6420998731233776,0.2265329963182004,-0.07032033034606561,-0.48120178868137203,0.8439091724166574,1.8110375587172596,1.8253167883438195,0.8411191508797399,0.5902701384544121,0.6079037402679237,0.3857314938221199
1,0.6744792358059025,0.00272954193262262,0.9840358644442843,-0.373151570468497,0.2494536360150568,-0.8006825519586145,0.39678487864938056,-0.4485550837172225,0.7680234038191076,0.6967513734735935,0.22473170481873236,-1.0792898015547867,-0.4121623673869614
1,0.9128991410802335,0.02337475024320769,1.4368077786159408,0.8552980849688568,0.5163720878425497,-0.03987374122614198,0.01533419402394975,-1.3307329950901186,1.3551976763503515,1.7415286021343026,0.12893650602981313,0.13919291521437738,0.17266932838553373
1,0.9291972985816862,0.20379828780739997,1.35808033827273,0.5927766549248437,0.7227460901485252,-0.2978079891165572,0.19381519076039005,3.043523776089864,1.8778080074996826,1.0422051223729252,0.40942210385509037,-0.44632927114005216,-0.4040285626260885
1,0.6369558346457546,-0.11240069119741948,1.1517739614888662,-0.7927150421513142,-0.14125083128609228,-0.5007787057176785,0.3176031368040246,-1.1528756181763447,1.199560717035117,0.8882593838915166,1.161050486494171,-0.5677202499401326,-0.705181084675681
1,0.2676594773064884,0.17039786090359976,0.9433771312225631,-0.5848590479517316,-0.10070380987883092,0.09783450375147912,0.7988911356252398,-0.9441565779838996,0.524281892030508,0.6344274109514603,1.4933054882036332,1.1908807296152806,-0.4557772547713427
1,0.85488023140111,0.032325186674497075,1.2719664212213888,-0.9170898837333434,-0.3415903077835194,0.036311551844530346,0.20234544221446216,-0.6177341644314858,1.3435023055852913,1.2868263154030968,0.1462394442207887,0.9034942986764611,0.6358888440292247
1,0.8350539648838081,0.4259067918587261,1.2429463041906934,-0.4252483957257953,-0.14344140924078838,-0.2153844769805528,0.8672934285024123,0.36906724268393254,1.3494748231440385,0.3680669857260389,0.17365643082229618,0.9524507617523903,0.7588736155857589
1,0.9393936382599855,0.1808095207522402,1.5088362698183773,-0.05214794165347219,-0.09373284156089733,-0.8171698804585408,0.5663286440447829,-0.5840561981871408,1.595819575222793,0.8484165333831618,0.0008049787663945707,-1.2185718119218818,-0.3790364919195296
1,0.15140901195388623,0.5400432813931942,1.18501087605483,-0.29692518915830723,0.1631092152296525,0.5191064775574525,0.7847033075681318,0.7466860382077491,0.9812514444196743,1.4645181398098923,1.6034912520638005,0.11546941247314946,0.5560520130671025
1,0.42533736864551625,0.22361410285184072,0.9027627653777642,-0.5696082004478126,0.10329074318501494,-0.12373909442507855,0.8059566718290472,-0.8203792287302314,0.45446732498475795,0.06552063482400372,1.1363846676359792,0.79544412066751,0.05494774520322787
1,0.9247313901371388,0.2898987331647294,1.479415094697079,0.7777746783992554,0.5453248739797392,-0.17568647969557002,0.25849872787326394,-1.5202743798347467,1.8571304615586908,0.8633975889792634,0.2147164716454744,1.3752929372813028,0.5514459394266205
1,0.2574380272457727,-0.270617084744494,1.1779305890087886,-0.9390638992385152,0.26703235746487064,-0.015925339039324516,0.2158682394197746,-1.0088212437690607,0.7258366424986222,1.6531215352206823,1.066430711241408,-0.22456695543255178,0.20207040759497708
1,-0.10346191306058142,0.3635099843375257,1.1554354810459802,-0.5304182297877685,0.782320115825534,0.18989880463859965,0.26565048819899695,0.29087171161825087,0.1644667467174538,1.7383489407969746,1.4478323838857827,-1.2470263261531738,0.5693177868971286
1,0.33695750271531705,0.15423511704505197,0.8007996603496459,-0.7220384735646735,0.1518776193795363,-0.3002590854311893,0.604514774873227,-0.17449967172020897,0.2596782645795153,1.1359263922843599,0.428574807638751,-0.2543896977683131,-0.33942136860759475
1,0.03150169293441238,-0.23757957295132187,1.1582857087533076,-0.8918806857611675,0.07753645379178177,0.19165889479413115,0.40224844157047746,-1.147443211786479,0.07934720721951902,1.5078852228221038,1.0582964495714744,0.5724658269029868,-0.6904963733872302
1,0.08320993378765262,0.08357016139561717,0.9185247925976909,-0.5184407434311533,-0.12803413081456821,0.5091230591383175,0.6749964203984745,-0.4260136858947521,0.357875908229023,1.4414954488363168,1.098943211416045,1.2822214753992531,-0.20230325705299224
1,0.1581235801303414,0.6008336307815189,1.4633177378341284,-0.013050016976733459,-0.050862875357289485,0.621618148049576,0.7815584066355582,1.6303592551778585,1.0706544688680817,1.6115580592191374,1.6525104584314116,0.07593196089889176,0.7882900593543916
1,0.9456140564352395,0.2728233709087322,1.5379532846544866,-0.354059238321953,-0.3944059323845005,-0.5701925704766653,0.6276674667624618,0.12666510918579,1.7352499783259114,0.8211902954349449,0.13421393385464273,0.41018155513810495,0.09420157197853718
1,0.45300027179382946,0.8149879445443367,1.2715723052805599,0.27112859336615486,0.833816653832153,-0.021908608458069915,0.48037390283702336,0.8920332178898025,0.23568154935304128,0.38758138557798627,0.32249627958738813,-1.1013552269323348,0.7014190657493595
1,0.9078650338996509,0.3019332055874998,1.6309120879318497,0.3165324439046403,0.06036688095120888,-0.48487675052503787,0.8130544806101617,2.28915848506683,1.5419128062393295,0.6715199035110663,0.2777461741360061,1.0064067838914204,0.4083013341835653
1,0.7315885721508992,0.18616695199378627,0.9651986696588178,-0.735901973740736,-0.5438555520672532,0.15421480036311935,0.3726757556899526,-0.09440005408467789,0.694579402994653,2.0295997732938216,-0.06255166226399515,0.654619925567457,0.08880241291415913
1,0.43482026825976605,0.9019733185179885,1.5064875858763422,0.061451382501407074,0.49391546293357935,-0.11965727978851769,0.8590421284531902,1.6540711143415237,0.20319294917907146,1.6565353943308874,-0.014062777664692827,-1.1078764874015257,-0.09555738548105253
1,0.6151266580112259,0.07459531669333434,1.9224408104835509,0.7360900497934643,0.36943777857301285,0.4034126820972845,0.39867953832767694,3.050021401080417,1.299214195598539,1.056385307331541,1.0769525127808433,-1.0341418480693885,0.07182798242543842
1,0.3186815305817627,0.5375067830478946,0.9252667597149042,-0.3131997576367162,0.4049843274139645,-0.10818402325426077,0.8521677202745265,-0.08432492293452953,0.15914382952945094,0.0332221984308127,0.8159725536192312,0.5514146089363825,0.2337477695844845
1,0.21677788174713028,0.5016747447571481,0.8736931162002256,-0.5657839800742246,0.2989840395633998,-0.27938647710496245,0.715849305642326,0.27319186934123096,0.08557950056523271,0.7966722101633079,0.6758881450228583,-0.09907011954942213,-0.6926896238533977
1,0.8220871087652682,0.0460343211536019,1.4699255878141524,-0.9242727832796348,-0.3737389060815758,-0.07599908996926684,0.016223146837428575,-1.632803473552289,1.9652759957259942,1.5589309285217001,1.0621458685793965,-0.19082711293273014,0.15940960146921246
1,0.5746906547635297,0.7163900706246166,1.7778826069833737,0.32360539395735827,0.3326381134392562,0.06801089031347357,0.8831794570120193,2.234849322826074,0.859698704398269,2.0622610104095074,0.504576630220127,-1.0824781077987466,0.4061300956500371
1,0.8259101117364154,0.5365236061740014,1.6371093691913807,0.1930772525133258,0.24959359945283816,-0.5384521021680417,0.7813408624569046,2.3668015580281327,1.1694535121096452,1.9968206408430043,0.5760880075891993,-0.40149576186506786,-0.6185007913614103
1,0.9380727875954017,0.3010455207477767,1.5214952100794694,0.33641510023762566,0.24225365092193524,-0.5090407062930817,0.7543312324726739,1.834617037429852,1.4583575654480518,1.4256609367924777,-0.11676541900974133,-0.4457171065429274,0.40510732629037327
1,0.8054617672625426,0.5357239944627397,1.5121783566759643,-0.11804917164187849,-0.6520095266217022,-0.4513569470539993,0.597682923141782,-0.5333415373088057,1.677694548782949,-0.028555655871363134,0.8333110036511571,0.9961416434803168,-0.759428785810893
1,0.5068169439499551,0.6638160594731868,1.5005763141498378,0.28559878649207404,0.5661556636443629,0.2248536628902869,0.7398256064522828,0.3015865629506853,0.9478611579987172,0.043778410180662225,1.335418111402975,-0.7447689181426025,0.6346479555840427
1,0.7694858242374704,0.6533222356691616,1.6587550159273377,0.33480789645511994,0.3360480165185492,-0.2222576668166738,0.8518080374159755,1.9906278878347698,0.8545026746690917,0.6540462293447181,-0.0963227063293991,0.2709847296976362,0.33844219533903863
1,0.5305124037456423,0.5519701148470393,1.80699643882231,0.366396769365395,0.5303188345224887,0.20584075853758146,0.7363049118904376,1.2277160353297736,1.2824948590900889,0.16961098797800975,1.4798327652487961,-0.9390807519861315,-0.1790376727311367
1,0.19688677881078762,0.8120066285675671,1.7673093103752269,0.22242828193166148,-0.017374152320787532,0.3053134332327218,0.9257469987613856,2.036095675026006,0.14509398408027663,1.601307858050973,0.14860339365146594,-0.1334631617407085,0.632278405827426
1,0.3223365303112579,0.2096136426886765,1.0051807605468888,-0.6269062048295355,0.415295890317666,0.021876928338434076,0.6588166162430651,-0.8833846875794515,1.1325373010740618,0.6995064082924523,1.5421135318995758,-0.2487891346632456,0.40747039842456667
1,0.07838486233590539,0.38300817220840977,0.9750004232626105,-0.496826070224231,0.3314010173279661,0.3273775049490363,0.7322302854381821,0.0015025059431639232,0.4870427735875851,1.1928691802145437,1.2142390735148743,0.19217010280776603,0.31585713650952485
1,0.5379010903040911,-0.3632845139736548,1.45535810903359,-0.6933686790659105,0.024828443226380482,-0.6919859432835845,0.19944642788297198,-1.8005144705681855,0.6769442194291889,1.1250863643897788,0.4679119692346354,-1.2658892658453775,0.34127676319356937
1,0.9361892221887029,0.23859467219150293,1.4945781012709414,-0.41497149562437163,-0.5947214436787939,-0.5240074482716504,0.44667802319312594,1.4914845884668388,1.7562211454703456,1.8804244535370815,0.34864452301698556,1.2489220578464963,-0.368342147276318
1,0.29734114884452817,-0.16352231274813392,1.3113567543529074,-0.9005044833902058,0.39202913843681936,0.07360453008329246,0.17316813552684152,-1.4095362904835085,1.3087691229265075,1.3349433101807489,1.579832587169173,0.0474968353550429,0.5802499652661672
1,0.944373387116124,0.25699675470629174,1.520972452447653,0.2025559593141129,0.13416208683957515,-0.59365284893659,0.7671687641912053,1.3379318496385795,1.6402735799439363,0.8778713794569991,0.10060425815800209,-0.032478380946824315,0.23192792614698066
1,0.24768316645847926,0.7585840586523978,1.15550174343919,-0.1872824804757986,-0.5732982375313197,0.39775733802253654,0.6914069014694179,1.242389049292804,0.5506632885008598,1.7370493043208464,0.9161974726824672,1.26831197745619,0.3710260908055645
1,0.7251711973427761,0.07160563379380334,1.055453326072737,-0.5335110548496855,0.07353000754038297,-0.573132681461661,0.6176392327118277,-1.1308219867324047,0.9664180348936995,0.003479017024798886,0.8770470715652657,-0.24825065044795114,-0.2732748966528726
1,0.7573973590101767,0.37053012183063205,1.034073782283559,-0.632761847939681,-0.30890962927836746,-0.08747110549305356,0.704653170314933,0.24242115346477333,1.075783303826692,1.2037199212145957,0.32015762463937614,0.7433721464934178,0.2915397895772651
1,0.3246160211192309,-0.3640385030677543,1.6320601620603916,0.7605360250616167,-0.300769605404357,-0.5338544773980395,0.21476032224424238,-1.6792052972187141,0.48321961127279167,1.4620695656165525,0.5484273194352466,1.3213985771368892,0.6954123929596296
1,0.6272870607859923,0.548937228919454,1.8494033357119073,0.37850625963524887,-0.004090670796335956,-0.3729745705055085,0.8471164309500805,2.55947308819231,1.1396630685311868,1.8118586467127828,1.1184626246710774,0.20065678365204764,-0.6512156595775438
1,0.5381118797843586,0.20620272734422002,0.8768048395807001,-0.43909550366982153,0.4142661183444077,-0.5504945472769329,0.5766580228065583,-0.47926547998341995,0.6429898848160485,0.34302553201173913,0.7449224613934908,-0.5770805781050871,-0.22816818403403039
1,0.5758371742171509,0.7989047525382696,1.2756358119996254,-0.12501031581227712,0.0737716827114657,-0.08134937817991296,0.9860590440943058,1.1769433742511788,0.5220039616736388,1.8259601955682419,-0.1456172118929856,-0.47853329832474367,0.5486016268396485
1,0.8375880277900466,0.5323255557502209,1.3671569731199056,-0.1416543919436129,0.0041580340055975265,-0.3243535228391241,0.9352601436061223,1.4493925466003967,1.4302985328427287,1.8992580280704432,0.43246736200810254,-0.22577030719475255,0.37683706237328196
1,0.5773250734933746,0.18035301284368316,2.0430346339038854,0.6747508898959007,0.5222216122698967,0.12464127658485759,0.506419170681975,2.962361304429008,0.551582567618901,0.33827058556850964,0.6523829299400953,0.16341634890845413,-0.5873037150477136
1,0.4082271702364933,-0.10518886524036794,0.8943396132125774,-0.8338848979636069,-0.018662272068571604,-0.1719831203120229,0.524127372760864,-0.7016917204988433,0.24018635573679661,0.34250220714790536,0.2757184949053817,0.9017878970613133,-0.05780378755445825
1,0.6763588557179845,0.37261704627351255,1.1483575075908872,-0.39058322417943314,0.28419451065130646,-0.4677339491137311,0.7402048216215147,1.0260640760752355,1.8076036446999317,1.94033727407818,1.4835480843042788,-0.8677635059255503,-0.34902137280861767
